!!!!SEGMENT: pl-cz--iii-671--001-005_scigalski-franciszek--missa-in-es-sanctus.krn
!!!cenid: 18xx:1121
!!!COM: Ścigalski, Franciszek
!!!COM-rismID: pe30002948
!!!CDT: 1782/01/29-1846/09/27
!!!CNT: Polish
!!!OPR: Missa in Es
!!!OTL: Sanctus
!!!OMV: 005
!!!PDT:
!!!AGN: Sacred; Mass
!!!SMS-siglum: PL-CZ
!!!SMS-shelfmark: III-671
!!!SMS-shelfwork: 001-005 M
!!!SMS-variant:
!!!SMS-altvar:
!!!NIFC-rismSourceID: 300001315
!!!NIFC-islandoraID: pl-cz:39924
!!!URL-pdf-islandora: https://repozytorium.nifc.pl/islandora/object/pl-cz%3A39924/datastream/PDF/view
!!!URL-scan:
!!!ONB-nifc: UWAGA: części Mszy: Kyrie, Gloria, Quoniam, Patrem, Sanctus, Benedictus, Agnus Dei
!!!AIN: 1 alto 1 bass 2 clars 2 cor 2 flt 1 organ 1 soprn 1 tenor 1 viola 2 violn
!!!OMD:
!!!OMD-mod: Adagio
!!!key: E-
**kern	**fba	**kern	**dynam	**kern	**dynam	**kern	**dynam	**kern	**text	**kern	**text	**kern	**text	**kern	**text	**kern	**kern	**kern	**kern	**kern	**kern
*	*	*group4	*	*group4	*	*group4	*	*group3	*	*group3	*	*group3	*	*group3	*	*group2	*group2	*group1	*group1	*group1	*group1
*part14	*part14	*part13	*part13	*part12	*part12	*part11	*part11	*part10	*part10	*part9	*part9	*part8	*part8	*part7	*part7	*part6	*part5	*part4	*part3	*part2	*part1
*staff14	*	*staff13	*	*staff12	*	*staff11	*	*staff10	*staff10	*staff9	*staff9	*staff8	*staff8	*staff7	*staff7	*staff6	*staff5	*staff4	*staff3	*staff2	*staff1
*I"Organo.	*	*I"Viola	*	*I"Violino Secundo	*	*I"Violino Primo	*	*I"Baſso	*	*I"Tenore.	*	*I"Alto	*	*I"Canto	*	*I"Cornu Secundo Dis.	*I"Cornu Primo in Dis	*I"Clarinetto Secundo	*I"Clarinetto. Primo	*I"Fluto Secondo	*I"Flauto Primo Obligatt
*mI"Organo	*	*mI"Viola	*	*mI"Violino II	*	*mI"Violino I	*	*mI"Basso	*	*mI"Tenore	*	*mI"Alto	*	*mI"Soprano	*	*mI"Corno II in Eb	*mI"Corno I in Eb	*mI"Clarinetto II	*mI"Clarinetto I	*mI"Flauto II	*mI"Flauto I
*I'org	*	*I'vla	*	*I'vl II	*	*I'vl I	*	*I'B	*	*I'T	*	*I'A	*	*I'S	*	*I'cor 2 in Dis	*I'cor 1 in Dis	*I'cl 2	*I'cl 1	*I'fl 2	*I'fl 1
*	*	*	*	*	*	*	*	*	*	*	*	*	*	*	*	*mI'cor 2 in E|b	*mI'cor 1 in E|b	*	*	*	*
*Iorgan	*	*Iviola	*	*Ivioln	*	*Ivioln	*	*Ibass	*	*Itenor	*	*Ialto	*	*Isoprn	*	*Icor	*Icor	*Iclars	*Iclars	*Iflt	*Iflt
*ICklav	*	*ICstr	*	*ICstr	*	*ICstr	*	*ICvox	*	*ICvox	*	*ICvox	*	*ICvox	*	*ICbras	*ICbras	*ICww	*ICww	*ICww	*ICww
*IGcont	*	*	*	*	*	*	*	*IGcoro	*	*IGcoro	*	*IGcoro	*	*IGcoro	*	*	*	*	*	*	*
*clefF4	*	*clefC3	*	*clefG2	*	*clefG2	*	*clefF4	*	*clefC4	*	*clefC3	*	*clefC1	*	*clefG2	*clefG2	*clefG2	*clefG2	*clefG2	*clefG2
*	*	*	*	*	*	*	*	*	*	*mclefGv2	*	*mclefG2	*	*mclefG2	*	*	*	*	*	*	*
*	*	*	*	*	*	*	*	*	*	*	*	*	*	*	*	*ITrd5c9	*ITrd5c9	*ITrd1c2	*ITrd1c2	*	*
*k[b-e-a-]	*	*k[b-e-a-]	*	*k[b-e-a-]	*	*k[b-e-a-]	*	*k[b-e-a-]	*	*k[b-e-a-]	*	*k[b-e-a-]	*	*k[b-e-a-]	*	*k[b-e-a-]	*k[b-e-a-]	*k[b-e-a-]	*k[b-e-a-]	*k[b-e-a-]	*k[b-e-a-]
*E-:	*	*E-:	*	*E-:	*	*E-:	*	*E-:	*	*E-:	*	*E-:	*	*E-:	*	*E-:	*E-:	*E-:	*E-:	*E-:	*E-:
*M2/2	*	*M2/2	*	*M2/2	*	*M2/2	*	*M2/2	*	*M2/2	*	*M2/2	*	*M2/2	*	*M2/2	*M2/2	*M2/2	*M2/2	*M2/2	*M2/2
*met(c|)	*	*met(c|)	*	*met(c|)	*	*met(c|)	*	*met(c|)	*	*met(c|)	*	*met(c|)	*	*met(c|)	*	*met(c|)	*met(c|)	*met(c|)	*met(c|)	*met(c|)	*met(c|)
*mmet(c|)	*	*mmet(c|)	*	*mmet(c|)	*	*mmet(c|)	*	*mmet(c|)	*	*mmet(c|)	*	*mmet(c|)	*	*mmet(c|)	*	*mmet(c|)	*mmet(c|)	*mmet(c|)	*mmet(c|)	*mmet(c|)	*mmet(c|)
=1	=1	=1	=1	=1	=1	=1	=1	=1	=1	=1	=1	=1	=1	=1	=1	=1	=1	=1	=1	=1	=1
!	!	!	!	!	!LO:DY:t= :mod=%s	!	!	!	!	!	!	!	!	!	!	!	!	!	!	!	!
!	!	!	!	!	!LO:MO:mod=!LO&colon;DY&colon;ed=brack	!	!	!	!	!	!	!	!	!	!	!	!	!	!	!	!
!	!	!LO:TX:a:B:t=adagio:mod=	!LO:DY:a:t=forte:mod=%s	!LO:TX:rj:a:B:t=adagio:mod=	!null	!LO:TX:rj:a:B:t=Adagio:mod=	!LO:DY:a:t=fortis&colon;:mod=%s	!LO:TX:rj:a:B:t=adagio:mod=	!	!LO:TX:rj:a:B:t=adagio:mod=	!	!LO:TX:rj:a:B:t=Andante:mod=	!	!LO:TX:rj:a:B:t=adagio:mod=	!	!LO:TX:rj:a:B:t=adagio:mod=	!LO:TX:rj:a:B:t=adagio:mod=	!LO:TX:rj:a:B:t=Adagio:mod=	!LO:TX:rj:a:B:t=adagio:mod=	!LO:TX:rj:a:B:t=Adagio:mod=	!LO:TX:a:B:t=Adagio:mod=
4E-\	8 5 3	4e-\	f	4e-/	ff	4e-/	ff	1E-\	San-	1B-\	San-	1g\	San-	1ee-\	San-	1G/	1e-/	1g/	1ee-\	1ee-\	1ee-\
8r	.	8r	.	8r	.	8r	.	.	.	.	.	.	.	.	.	.	.	.	.	.	.
16r	.	16r	.	16r	.	16r	.	.	.	.	.	.	.	.	.	.	.	.	.	.	.
!	!	!LO:SIC:s=32e-|LLL	!	!	!	!LO:SIC:s=32e-|LLL	!	!	!	!	!	!	!	!	!	!	!	!	!	!	!
32E-\LLL	_ _ _	(32e-\LLL	.	32e-/LLL|	.	32e-/LLL	.	.	.	.	.	.	.	.	.	.	.	.	.	.	.
!	!	!LO:SIC:s=32f|JJJ	!	!	!	!LO:SIC:s=32f|JJJ	!	!	!	!	!	!	!	!	!	!	!	!	!	!	!
32F\JJJ	.	32f\JJJ)	.	32f/JJJ|	.	32f/JJJ	.	.	.	.	.	.	.	.	.	.	.	.	.	.	.
!	!	!LO:SIC:s=8.g|L	!	!	!	!LO:SIC:s=8.g|L	!	!	!	!	!	!	!	!	!	!	!	!	!	!	!
8.G\L	.	8.g\L	.	8.g/L|	.	8.g/L	.	.	.	.	.	.	.	.	.	.	.	.	.	.	.
!	!	!LO:SIC:s=32g|LL	!	!	!	!LO:SIC:s=32g|LL	!	!	!	!	!	!	!	!	!	!	!	!	!	!	!
32G\LL	.	32g\LL	.	32g/LL|	.	32g/LL	.	.	.	.	.	.	.	.	.	.	.	.	.	.	.
!	!	!LO:SIC:s=32f|JJJ	!	!	!	!LO:SIC:s=32f|JJJ	!	!	!	!	!	!	!	!	!	!	!	!	!	!	!
32F\JJJ	.	32f\JJJ	.	32f/JJJ|	.	32f/JJJ	.	.	.	.	.	.	.	.	.	.	.	.	.	.	.
!	!	!LO:SIC:s=8.e-|L	!	!	!	!LO:SIC:s=8.e-|L	!	!	!	!	!	!	!	!	!	!	!	!	!	!	!
8.E-\L	x	8.e-\L	.	8.e-/L|	.	8.e-/L	.	.	.	.	.	.	.	.	.	.	.	.	.	.	.
!	!	!LO:SIC:s=32e-|LL	!	!	!	!LO:SIC:s=32e-|LL	!	!	!	!	!	!	!	!	!	!	!	!	!	!	!
32E-\LL	.	32e-\LL	.	32e-/LL|	.	32e-/LL	.	.	.	.	.	.	.	.	.	.	.	.	.	.	.
!	!	!LO:SIC:s=32d|JJJ	!	!	!	!LO:SIC:s=32d|JJJ	!	!	!	!	!	!	!	!	!	!	!	!	!	!	!
32D\JJJ	.	32d\JJJ	.	32d/JJJ|	.	32d/JJJ	.	.	.	.	.	.	.	.	.	.	.	.	.	.	.
=2	=2	=2	=2	=2	=2	=2	=2	=2	=2	=2	=2	=2	=2	=2	=2	=2	=2	=2	=2	=2	=2
4C/	8 5 3	4c\	.	4c/	.	4c/	.	1C/	-ctus	1c\	-ctus	1g\	-ctus	1ee-\	-ctus	1G/	1e-/	1g/	1ee-\	1ee-\	1ee-\
8r	.	8r	.	8r	.	8r	.	.	.	.	.	.	.	.	.	.	.	.	.	.	.
16r	.	16r	.	16r	.	16r	.	.	.	.	.	.	.	.	.	.	.	.	.	.	.
!	!	!LO:SIC:s=32c|LLL	!	!	!	!LO:SIC:s=32c|LLL	!	!	!	!	!	!	!	!	!	!	!	!	!	!	!
32C/LLL	_ _ _	(32c\LLL	.	32c/LLL|	.	32c/LLL	.	.	.	.	.	.	.	.	.	.	.	.	.	.	.
!	!	!LO:SIC:s=32d|JJJ	!	!	!	!LO:SIC:s=32d|JJJ	!	!	!	!	!	!	!	!	!	!	!	!	!	!	!
32D/JJJ	.	32d\JJJ)	.	32d/JJJ|	.	32d/JJJ	.	.	.	.	.	.	.	.	.	.	.	.	.	.	.
!	!	!LO:SIC:s=8.e-|L	!	!	!	!LO:SIC:s=8.e-|L	!	!	!	!	!	!	!	!	!	!	!	!	!	!	!
8.E-/L	.	8.e-\L	.	8.e-/L|	.	8.e-/L	.	.	.	.	.	.	.	.	.	.	.	.	.	.	.
!	!	!LO:SIC:s=32e-|LL	!	!	!	!LO:SIC:s=32e-|LL	!	!	!	!	!	!	!	!	!	!	!	!	!	!	!
32E-/LL	.	32e-\LL	.	32e-/LL|	.	32e-/LL	.	.	.	.	.	.	.	.	.	.	.	.	.	.	.
!	!	!LO:SIC:s=32d|JJJ	!	!	!	!LO:SIC:s=32d|JJJ	!	!	!	!	!	!	!	!	!	!	!	!	!	!	!
32D/JJJ	.	32d\JJJ	.	32d/JJJ|	.	32d/JJJ	.	.	.	.	.	.	.	.	.	.	.	.	.	.	.
!	!	!LO:SIC:s=8.c|L	!	!LO:SIC:s=8.c|L	!	!LO:SIC:s=8.c|L	!	!	!	!	!	!	!	!	!	!	!	!	!	!	!
8.C/L	x	8.c\L	.	8.c/L	.	8.c/L	.	.	.	.	.	.	.	.	.	.	.	.	.	.	.
!	!	!LO:SIC:s=32c|LL	!	!LO:SIC:s=32c|LL	!	!LO:SIC:s=32c|LL	!	!	!	!	!	!	!	!	!	!	!	!	!	!	!
32C/LL	.	32c\LL	.	32c/LL	.	32c/LL	.	.	.	.	.	.	.	.	.	.	.	.	.	.	.
!	!	!LO:SIC:s=32B-|JJJ	!	!LO:SIC:s=32B-|JJJ	!	!LO:SIC:s=32B-|JJJ	!	!	!	!	!	!	!	!	!	!	!	!	!	!	!
32BB-/JJJ	.	32B-\JJJ	.	32B-/JJJ	.	32B-/JJJ	.	.	.	.	.	.	.	.	.	.	.	.	.	.	.
!LO:LB:g=original	!	!	!	!	!	!	!	!	!	!	!	!	!	!	!	!	!	!	!	!	!
=3	=3	=3	=3	=3	=3	=3	=3	=3	=3	=3	=3	=3	=3	=3	=3	=3	=3	=3	=3	=3	=3
*	*	*	*	*	*	*	*	*	*ij	*	*	*	*	*	*	*	*	*	*	*	*
!LO:SIC:s=4AA-	!	!	!	!LO:SIC:s=4A-	!	!LO:SIC:s=4A-	!	!	!	!	!	!	!	!	!	!	!	!LO:SIC:s=1a-	!	!	!
4AA-X/	6 3 8	4A-/	.	4A-X/	.	4A-X/	.	1A-\	San-	1c\	San-	1f\	San-	1ff\	San-	1f/	1a-/	1a-X/	1ff\	1ff\	1aa-\
8r	.	8r	.	8r	.	8r	.	.	.	.	.	.	.	.	.	.	.	.	.	.	.
!	!	!	!	!LO:MO:mod=!null:null	!	!	!	!	!	!	!	!	!	!	!	!	!	!	!	!	!
!	!	!	!	!LO:N:vis=8.	!	!	!	!	!	!	!	!	!	!	!	!	!	!	!	!	!
16r	.	16r	.	16r	.	16r	.	.	.	.	.	.	.	.	.	.	.	.	.	.	.
!	!	!LO:LB:g=original	!	!LO:LB:g=original	!	!	!	!	!	!	!	!	!	!	!	!	!	!	!	!	!
!	!	!LO:SIC:s=32A-|LLL	!	!	!	!LO:SIC:s=32a-|LLL	!	!	!	!	!	!	!	!	!	!	!	!	!	!	!
32A-\LLL	_ _ _	(32A-/LLL	.	32a-\LLL|	.	(32a-/LLL	.	.	.	.	.	.	.	.	.	.	.	.	.	.	.
*	*	*	*	*	*	*custos:cc	*	*	*	*	*	*	*	*	*	*	*	*	*	*	*
!	!	!LO:SIC:s=32B-|JJJ	!	!	!	!LO:SIC:s=32b-|JJJ	!	!	!	!	!	!	!	!	!	!	!	!	!	!	!
32B-\JJJ	.	32B-/JJJ)	.	32b-\JJJ|	.	32b-/JJJ)	.	.	.	.	.	.	.	.	.	.	.	.	.	.	.
!	!	!	!	!	!	!LO:SIC:s=8.cc|L	!	!	!	!	!	!	!	!	!	!	!	!	!	!	!
!	!	!LO:SIC:s=8.c|L	!	!	!	!LO:LB:g=original	!	!	!	!	!	!	!	!	!	!	!	!	!	!	!
8.c\L	.	8.c/L	.	8.cc\L|	.	8.cc\L	.	.	.	.	.	.	.	.	.	.	.	.	.	.	.
!	!	!LO:SIC:s=32c|LL	!	!	!	!LO:SIC:s=32cc|LL	!	!	!	!	!	!	!	!	!	!	!	!	!	!	!
32c\LL	.	32c/LL	.	32cc\LL|	.	32cc\LL	.	.	.	.	.	.	.	.	.	.	.	.	.	.	.
!	!	!LO:SIC:s=32B-|JJJ	!	!	!	!LO:SIC:s=32b-|JJJ	!	!	!	!	!	!	!	!	!	!	!	!	!	!	!
32B-\JJJ	.	32B-/JJJ	.	32b-\JJJ|	.	32b-\JJJ	.	.	.	.	.	.	.	.	.	.	.	.	.	.	.
!	!	!LO:SIC:s=8.A-|L	!	!LO:SIC:s=8.a-|L	!	!LO:SIC:s=8.a-|L	!	!	!	!	!	!	!	!	!	!	!	!	!	!	!
8.A-\L	.	8.A-/L	.	8.a-/L	.	8.a-/L	.	.	.	.	.	.	.	.	.	.	.	.	.	.	.
!	!	!LO:SIC:s=32A-|LL	!	!LO:SIC:s=32a-|LL	!	!LO:SIC:s=32a-|LL	!	!	!	!	!	!	!	!	!	!	!	!	!	!	!
32A-\LL	.	32A-/LL	.	32a-/LL	.	32a-/LL	.	.	.	.	.	.	.	.	.	.	.	.	.	.	.
!	!	!LO:SIC:s=32G|JJJ	!	!LO:SIC:s=32g|JJJ	!	!LO:SIC:s=32g|JJJ	!	!	!	!	!	!	!	!	!	!	!	!	!	!	!
32G\JJJ	x	32G/JJJ	.	32g/JJJ	.	32g/JJJ	.	.	.	.	.	.	.	.	.	.	.	.	.	.	.
=4	=4	=4	=4	=4	=4	=4	=4	=4	=4	=4	=4	=4	=4	=4	=4	=4	=4	=4	=4	=4	=4
!	!	!	!	!	!	!	!	!LO:MO:mod=*null:null	!	!LO:MO:mod=*null:null	!	!LO:MO:mod=*null:null	!	!LO:MO:mod=*null:null	!	!	!LO:MO:mod=*null:null	!LO:MO:mod=*null:null	!LO:MO:mod=*null:null	!LO:MO:mod=*null:null	!LO:MO:mod=*null:null
*	*	*	*	*	*	*	*	*2\right	*	*2\right	*	*2\right	*	*2\right	*	*	*2\right	*2\right	*2\right	*2\right	*2\right
!	!	!LO:SIC:s=8.F|L	!	!LO:SIC:s=8.f|L	!	!LO:SIC:s=8.f|L	!	!	!	!	!	!	!	!	!	!	!	!	!	!	!
8.F\L	_ _ _	8.f\L	.	8.f/L	.	8.f/L	.	2B-\	-ctus	2d\	-ctus	2b-\	-ctus	2ff\	-ctus	2B-/	2f\	2a-\	2ff\	2ff\	2ff\
*	*	*	*	*	*	*	*	*	*Xij	*	*	*	*	*	*	*	*	*	*	*	*
!	!	!LO:SIC:s=32f|LL	!	!LO:SIC:s=32f|LL	!	!LO:SIC:s=32f|LL	!	!	!	!	!	!	!	!	!	!	!	!	!	!	!
32F\LL	.	32f\LL	.	32f/LL	.	32f/LL	.	.	.	.	.	.	.	.	.	.	.	.	.	.	.
!	!	!LO:SIC:s=32e-|JJJ	!	!LO:SIC:s=32e-|JJJ	!	!LO:SIC:s=32e-|JJJ	!	!	!	!	!	!	!	!	!	!	!	!	!	!	!
32E-\JJJ	.	32e-\JJJ	.	32e-/JJJ	.	32e-/JJJ	.	.	.	.	.	.	.	.	.	.	.	.	.	.	.
!	!	!LO:SIC:s=8.d|L	!	!LO:SIC:s=8.d|L	!	!LO:SIC:s=8.d|L	!	!	!	!	!	!	!	!	!	!	!	!	!	!	!
8.D\L	.	8.d\L	.	8.d/L	.	8.d/L	.	.	.	.	.	.	.	.	.	.	.	.	.	.	.
!	!	!LO:SIC:s=32d|LL	!	!LO:SIC:s=32d|LL	!	!LO:SIC:s=32d|LL	!	!	!	!	!	!	!	!	!	!	!	!	!	!	!
32D\LL	.	32d\LL	.	32d/LL	.	32d/LL	.	.	.	.	.	.	.	.	.	.	.	.	.	.	.
!	!	!LO:SIC:s=32c|JJJ	!	!LO:SIC:s=32c|JJJ	!	!LO:SIC:s=32c|JJJ	!	!	!	!	!	!	!	!	!	!	!	!	!	!	!
32C\JJJ	x	32c\JJJ	.	32c/JJJ	.	32c/JJJ	.	.	.	.	.	.	.	.	.	.	.	.	.	.	.
!	!	!	!	!	!	!LO:SIC:s=(8B-L	!	!	!	!	!	!	!	!	!	!	!	!	!	!	!
4BB-/	5 3	4B-/	.	(8B-/L	.	8B-/L	.	2r	.	2r	.	2r	.	2r	.	2r	2r	2r	2r	2r	2r
!	!	!	!	!	!	!LO:SIC:s=8A)	!	!	!	!	!	!	!	!	!	!	!	!	!	!	!
.	.	.	.	8An/)	.	8An/	.	.	.	.	.	.	.	.	.	.	.	.	.	.	.
!	!	!	!	!	!	!LO:SIC:s=8B-|	!	!	!	!	!	!	!	!	!	!	!	!	!	!	!
4r	.	4r	.	8B-/|	.	8B-/	.	.	.	.	.	.	.	.	.	.	.	.	.	.	.
!	!	!	!	!	!	!LO:SIC:s=8B-|J	!	!	!	!	!	!	!	!	!	!	!	!	!	!	!
.	.	.	.	8B-/J|	.	8B-/J	.	.	.	.	.	.	.	.	.	.	.	.	.	.	.
=5	=5	=5	=5	=5	=5	=5	=5	=5	=5	=5	=5	=5	=5	=5	=5	=5	=5	=5	=5	=5	=5
!LO:MO:mod=!LO&colon;TX&colon;b&colon;i&colon;t=pedal	!	!	!	!	!	!	!	!	!	!	!	!	!	!	!	!	!	!	!	!	!
!LO:TX:a:i:t=Pedal	!	!	!	!	!LO:DY:a:t=pio:mod=%s	!	!LO:DY:a:t=pio:mod=%s	!	!	!	!	!LO:TX:rj:a:i:t=Solo:mod=	!	!LO:TX:a:t=1:mod=	!	!	!	!LO:TX:a:t=1:mod=	!	!LO:TX:a:t=1:mod=	!
1BB-/	.	2.r	.	8r	p	2.f/	p	2BB-/	Do-	2.B-\	Do-	8r	.	1r	.	1B-/	1b-\	1r	1r	1r	1bb-\
!	!	!	!	!	!	!	!	!	!	!	!	!LO:MO:mod=!LO&colon;TX&colon;t=Solo	!	!	!	!	!	!	!	!	!
!	!	!	!	!	!	!	!	!	!	!	!	!null	!	!	!	!	!	!	!	!	!
.	.	.	.	8bb-\L	.	.	.	.	.	.	.	8b-\L	Do-	.	.	.	.	.	.	.	.
.	.	.	.	8aan\	.	.	.	.	.	.	.	8an\	.	.	.	.	.	.	.	.	.
.	.	.	.	8bb-\J	.	.	.	.	.	.	.	8b-\J	.	.	.	.	.	.	.	.	.
.	.	.	.	8aa\L	.	.	.	4.BB-/	-mi-	.	.	8a\L	.	.	.	.	.	.	.	.	.
.	.	.	.	8bb-\	.	.	.	.	.	.	.	8b-\J	.	.	.	.	.	.	.	.	.
!	!	!	!LO:DY:t= :mod=%s	!	!	!	!	!	!	!	!	!	!	!	!	!	!	!	!	!	!
!	!	!	!LO:MO:mod=!LO&colon;DY&colon;ed=brack	!	!	!	!	!	!	!	!	!	!	!	!	!	!	!	!	!	!
!	!	!	!null	!	!	!	!	!	!	!	!	!	!	!	!	!	!	!	!	!	!
.	.	4f\	p	8ff\	.	4a-/	.	.	.	8B-\	-mi-	8f\	-mi-	.	.	.	.	.	.	.	.
.	.	.	.	8aa-X\J	.	.	.	8BB-/	-nus	8B-\	-nus	8a-X\	-nus	.	.	.	.	.	.	.	.
=6	=6	=6	=6	=6	=6	=6	=6	=6	=6	=6	=6	=6	=6	=6	=6	=6	=6	=6	=6	=6	=6
!LO:TX:a:i:t=Tut:mod= 	!	!	!	!	!	!	!	!	!	!	!	!	!	!	!	!	!	!	!	!	!
1BB-/	.	(8e-\L	.	8ff#X\L	.	(8g/L	.	4BB-/	De-	2.B-\	De-	8f#X\L	De-	4r	.	1B-/	2.b-\	2.b-\	2.gg\	2.gg\	2.bb-\
.	.	8g\	.	8gg\J	.	8b-/	.	.	.	.	.	8g\J	.	.	.	.	.	.	.	.	.
.	.	8f#X\	.	4.gg\	.	8an/	.	2BB-/	.	.	.	2g\	.	2gg\	Do-	.	.	.	.	.	.
.	.	8g\J)	.	.	.	8b-/J)	.	.	.	.	.	.	.	.	.	.	.	.	.	.	.
.	.	4g\	.	.	.	(8a/L	.	.	.	.	.	.	.	.	.	.	.	.	.	.	.
.	.	.	.	8gg\	.	8b-/	.	.	.	.	.	.	.	.	.	.	.	.	.	.	.
!	!	!	!	!LO:LB:g=original	!	!	!	!	!	!	!	!	!	!	!	!	!	!	!	!	!
.	.	4fn\	.	8dd\L	.	8f/	.	4BB-/	-us	4B-\	-us	4fn\	-us	(8dd\L	-mi-	.	4a-\	4a-\	4ff\	4ff\	4aa-\
.	.	.	.	8ffn\J	.	8a-X/J)	.	.	.	.	.	.	.	8ff\J)	.	.	.	.	.	.	.
=7	=7	=7	=7	=7	=7	=7	=7	=7	=7	=7	=7	=7	=7	=7	=7	=7	=7	=7	=7	=7	=7
!	!	!	!	!	!	!	!	!	!LO:MO:mod=Do-	!	!	!	!	!	!	!	!	!	!	!	!
8E-\L	5 3	(8e-\L	.	8g/	.	8b-\L	.	2E-\	Sa-	2B-\	Do-	2g\	Do-	4ee-\	-nus	2G/	2e-\	2g/	2ee-\	2ee-\	2ee-\
8e-\	_ _	8e-\	.	4g/	.	8ee-\J	.	.	.	.	.	.	.	.	.	.	.	.	.	.	.
!LO:TX:t=P:problem=nieczytelny dźwięk	!	!	!	!	!	!	!	!	!	!	!	!	!	!	!	!	!	!	!	!	!
!LO:TX:b:t=d:mod=	!	!	!	!	!	!	!	!	!	!	!	!	!	!	!	!	!	!	!	!	!
*	*	*	*	*	*	*	*	*	*	*	*	*	*	*	*ij	*	*	*	*	*	*
8d\	.	8d\	.	.	.	4ee-\	.	.	.	.	.	.	.	4ee-\	Do-	.	.	.	.	.	.
*custos:d	*	*	*	*	*	*	*	*	*	*	*	*	*	*	*	*	*	*	*	*	*
8e-\J	.	8e-\J)	.	4g/	.	.	.	.	.	.	.	.	.	.	.	.	.	.	.	.	.
!LO:LB:g=original	!	!LO:SIC:s=(8dL	!	!	!	!	!	!	!LO:MO:null:mod=-mi-	!	!	!	!	!	!	!	!	!	!	!	!
8d\L	.	8d\L	.	.	.	4.ee-\	.	4E-\	.	4B-\	-mi-	4g\	-mi-	4ee-\	-mi-	4E-/	4e-\	4g/	4ee-\	4ee-\	4ee-\
8e-\	.	8e-\	.	4g/	.	.	.	.	.	.	.	.	.	.	.	.	.	.	.	.	.
!	!	!	!	!	!	!	!	!	!LO:MO:mod=-nus	!	!	!	!	!	!	!	!	!	!	!	!
8B-\	.	8B-\	.	.	.	.	.	4E-\	-ba-	4B-\	-nus	4g\	-nus	4ee-\	-nus	4E-/	4e-\	4g/	4dd-X\	4dd-X\	4ee-\
*	*	*	*	*	*	*	*	*	*	*	*	*	*	*	*Xij	*	*	*	*	*	*
!	!	!LO:SIC:s=8d-J)	!	!	!	!	!	!	!	!	!	!	!	!	!	!	!	!	!	!	!
8d-X\J	.	8d-X\J	.	8g/	.	8ee-\	.	.	.	.	.	.	.	.	.	.	.	.	.	.	.
!	!	!	!	!	!	!LO:LB:g=original	!	!	!	!	!	!LO:LB:g=original	!	!	!	!	!	!	!	!	!
=8	=8	=8	=8	=8	=8	=8	=8	=8	=8	=8	=8	=8	=8	=8	=8	=8	=8	=8	=8	=8	=8
!	!	!	!	!	!LO:DY:t= :mod=%s	!	!LO:DY:t= :mod=%s	!	!	!	!	!	!	!	!	!	!	!	!	!	!
!	!	!	!	!	!LO:MO:mod=!LO&colon;DY&colon;ed=brack	!	!LO:MO:mod=!LO&colon;DY&colon;ed=brack	!	!	!	!	!	!	!	!	!	!	!	!	!	!
!	!	!	!	!	!null	!	!null	!	!LO:MO:mod=De-	!	!	!	!	!	!	!	!	!	!	!	!
8c\L	6 3	4c\	.	8a-/	fp	8ee-\	fp	2E-\	-oth	2c\	De-	2a-X\	De-	2ee-\	De-	2E-/	2e-\	2a-/	2cc\	2cc\	2ee-\
8c\	_ _	.	.	4a-/	.	4ee-\	.	.	.	.	.	.	.	.	.	.	.	.	.	.	.
8Bn\	.	4r	.	.	.	.	.	.	.	.	.	.	.	.	.	.	.	.	.	.	.
8c\J	.	.	.	4a-/	.	4ee-\	.	.	.	.	.	.	.	.	.	.	.	.	.	.	.
!LO:SIC:s=8B-L	!	!	!	!	!	!	!	!	!LO:MO:mod=-us	!	!	!	!	!	!	!	!	!	!	!	!
8B\L	x	4r	.	.	.	.	.	2E-\	Do-	2B-\	-us	(4f\	-us	2dd-X\	-us	2E-/	2e-\	2g/	2b-\	2b-\	2ee-\
8c\	.	.	.	8a-/	.	4ee-\	.	.	.	.	.	.	.	.	.	.	.	.	.	.	.
8G\	6 5	4B-/	.	8g/L	.	.	.	.	.	.	.	4g\)	.	.	.	.	.	.	.	.	.
!LO:SIC:s=8B-J	!	!	!	!	!	!	!	!	!	!	!	!	!	!	!	!	!	!	!	!	!
8B-X\J	_ _	.	.	8g/J	.	8ee-\	.	.	.	.	.	.	.	.	.	.	.	.	.	.	.
!	!	!LO:LB:g=original	!	!	!	!	!	!	!	!	!	!	!	!	!	!	!	!	!	!	!
=9	=9	=9	=9	=9	=9	=9	=9	=9	=9	=9	=9	=9	=9	=9	=9	=9	=9	=9	=9	=9	=9
!	!	!	!	!	!LO:DY:t= :mod=%s	!	!	!	!	!	!	!	!	!	!	!	!	!	!	!	!
!	!	!	!	!	!LO:MO:mod=!LO&colon;DY&colon;ed=brack	!	!	!	!	!	!	!	!	!	!	!	!	!	!	!	!
!	!	!	!	!	!null	!	!LO:DY:a	!	!LO:MO:null:mod=Do-	!	!	!	!	!	!	!	!	!LO:SIC:s=2a-	!	!	!
4A-\	5 3	4r	.	8e-/	fp	8cc\	fp	2A-\	.	2c\	Do-	2e-\	Do-	2cc\	Do-	2E-/	2e-\	2a-X/	2cc\	2cc\	2ee-\
.	.	.	.	4e-/	.	4cc\	.	.	.	.	.	.	.	.	.	.	.	.	.	.	.
4A-\	_ _	4A-/	.	.	.	.	.	.	.	.	.	.	.	.	.	.	.	.	.	.	.
.	.	.	.	4e-/	.	4cc\	.	.	.	.	.	.	.	.	.	.	.	.	.	.	.
4A-\	x	4A-/	.	.	.	.	.	4A-\	-mi-	4c\	-mi-	4e-\	-mi-	4cc\	-mi-	2E-/	2e-\	2a-/	2cc\	2cc\	2ee-\
.	.	.	.	4e-/	.	4cc\	.	.	.	.	.	.	.	.	.	.	.	.	.	.	.
4A-\	.	4A-/	.	.	.	.	.	4A-\	-nus	4c\	-nus	4e-\	-nus	4cc\	-nus	.	.	.	.	.	.
.	.	.	.	8e-/	.	8cc\	.	.	.	.	.	.	.	.	.	.	.	.	.	.	.
!	!	!	!	!	!	!	!	!	!	!LO:LB:g=original	!	!	!	!LO:LB:g=original	!	!	!	!	!	!LO:LB:g=original	!
=10	=10	=10	=10	=10	=10	=10	=10	=10	=10	=10	=10	=10	=10	=10	=10	=10	=10	=10	=10	=10	=10
!	!	!	!	!	!LO:DY:t= :mod=%s	!	!	!	!	!	!	!	!	!	!	!	!	!	!	!	!
!	!	!	!	!	!LO:MO:mod=!LO&colon;DY&colon;ed=brack	!	!	!	!	!	!	!	!	!	!	!	!	!	!	!	!
!	!	!	!	!	!null	!LO:SIC:s=8dd	!LO:DY:a:t=fp&colon;:mod=%s	!	!	!	!	!	!	!LO:SIC:s=2dd	!	!	!	!	!	!	!
4A-\	6 2	4A-/	.	8f/	fp	8ddn\	fp	2A-\	De-	2B-\	De-	2f\	De-	2ddn\	De-	2B-/	2f\	2b-\	2dd\	2dd\	2ff\
.	.	.	.	4f/	.	4dd\	.	.	.	.	.	.	.	.	.	.	.	.	.	.	.
4A-\	_ _	4B-/	.	.	.	.	.	.	.	.	.	.	.	.	.	.	.	.	.	.	.
.	.	.	.	4f/	.	4dd\	.	.	.	.	.	.	.	.	.	.	.	.	.	.	.
!	!	!	!	!	!	!	!	!	!	!	!	!	!	!	!	!LO:SIC:s=2B-	!LO:SIC:s=2f	!	!	!	!LO:SIC:s=2ff
4A-\	x	4B-/	.	.	.	.	.	2A-\	-us	2B-\	-us	2f\	-us	2dd\	-us	2G/	2e-\	2b-\	2dd\	2dd\	2ee-\
.	.	.	.	4f/	.	4dd\	.	.	.	.	.	.	.	.	.	.	.	.	.	.	.
4A-\	.	4B-/	.	.	.	.	.	.	.	.	.	.	.	.	.	.	.	.	.	.	.
.	.	.	.	8f/	.	8dd\	.	.	.	.	.	.	.	.	.	.	.	.	.	.	.
!	!	!	!	!	!	!	!	!LO:LB:g=original	!	!	!	!	!	!	!	!	!LO:LB:g=original	!	!	!	!LO:LB:g=original
=11	=11	=11	=11	=11	=11	=11	=11	=11	=11	=11	=11	=11	=11	=11	=11	=11	=11	=11	=11	=11	=11
!	!	!	!	!	!	!	!	!	!	!	!	!	!	!	!	!LO:MO:mod=*null:null	!	!	!	!	!
*	*	*	*	*	*	*	*	*	*	*	*	*	*	*	*	*2\right	*	*	*	*	*
!	!	!	!	!	!LO:DY:t= :mod=%s	!	!	!	!	!	!	!	!	!	!	!	!	!	!	!	!
!	!	!	!	!	!LO:MO:mod=!LO&colon;DY&colon;ed=brack	!	!	!	!	!	!	!	!	!	!	!	!	!	!	!	!
!	!	!	!	!	!null	!	!LO:DY:a	!	!	!	!	!	!	!	!	!LO:SIC:s=2e-	!LO:SIC:s=2e-	!	!	!	!
4G\	6 3	4e-\	.	8b-\	fp	8ee-\	fp	2G\	Sa-	2.e-\	Sa-	2.b-\	Sa-	2.ee-\	Sa-	2f\	2f\	2b-\	2ee-\	2ee-\	2ff\
.	_ _	.	.	4b-\	.	4ee-\	.	.	.	.	.	.	.	.	.	.	.	.	.	.	.
4G\	.	4e-\	.	.	.	.	.	.	.	.	.	.	.	.	.	.	.	.	.	.	.
!	!	!	!	!	!	!	!LO:DY:a:mod= 	!	!	!	!	!	!	!	!	!	!	!	!	!	!
.	.	.	.	8b-\	.	4ee-\	fp	.	.	.	.	.	.	.	.	.	.	.	.	.	.
!LO:N:acc=#	!	!	!	!	!	!	!	!	!	!	!	!	!	!	!	!LO:SIC:s=2e-	!LO:SIC:s=2e-	!	!	!	!
4A\	6 5	4e-\	.	8cc\	.	.	.	2An\	-ba-	.	.	.	.	.	.	2f\	2f\	2cc\	2ee-\	2ee-\	2ff\
.	_ _	.	.	4cc\	.	4ee-\	.	.	.	.	.	.	.	.	.	.	.	.	.	.	.
4A\	.	4f\	.	.	.	.	.	.	.	4f\	-ba-	4cc\	-ba-	4ee-\	-ba-	.	.	.	.	.	.
.	.	.	.	8cc\	.	8ee-\	.	.	.	.	.	.	.	.	.	.	.	.	.	.	.
!	!	!	!	!	!	!	!	!	!	!	!	!	!	!	!	!	!	!	!LO:LB:g=original	!	!
=12	=12	=12	=12	=12	=12	=12	=12	=12	=12	=12	=12	=12	=12	=12	=12	=12	=12	=12	=12	=12	=12
!LO:MO:mod=*null:null	!	!LO:MO:mod=*null:null	!	!LO:MO:mod=*null:null	!	!	!	!	!	!	!	!	!	!	!	!	!	!	!	!	!
*2\right	*	*2\right	*	*2\right	*	*	*	*	*	*	*	*	*	*	*	*	*	*	*	*	*
!	!	!	!	!	!	!	!	!	!LO:MO:mod=-oth.	!	!LO:MO:mod=-oth.	!	!LO:MO:mod=-oth.	!	!LO:MO:mod=-oth.	!	!	!	!	!	!
2B-\	5 3	2b-\	.	2dd\	.	8dd\L	.	2B-\	-oth	2f\	-oth	2b-\	-oth	4ddn\	-oth	2B-/	2f\	2b-\	2dd\	2dd\	2ff\
.	.	.	.	.	.	8bb-\	.	.	.	.	.	.	.	.	.	.	.	.	.	.	.
.	.	.	.	.	.	8aan\	.	.	.	.	.	.	.	4r	.	.	.	.	.	.	.
.	.	.	.	.	.	8bb-\J	.	.	.	.	.	.	.	.	.	.	.	.	.	.	.
!	!	!	!	!	!	!LO:MO:mod=*null:null	!	!	!	!	!	!	!	!	!	!	!	!	!	!	!
*	*	*	*	*	*	*2\right	*	*	*	*	*	*	*	*	*	*	*	*	*	*	*
2BB-/	.	8cc\L|	.	8ee-\L|	.	2aa\	.	2r	.	2r	.	2r	.	2r	.	2B-/	2b-\	2cc\	2ee-\	2ee-\	2bb-\
.	.	(8cc\	.	8ee-\|	.	.	.	.	.	.	.	.	.	.	.	.	.	.	.	.	.
.	.	8b-\	.	8dd\	.	.	.	.	.	.	.	.	.	.	.	.	.	.	.	.	.
.	.	8cc\J)	.	8ee-\J	.	.	.	.	.	.	.	.	.	.	.	.	.	.	.	.	.
!LO:LB:g=original	!	!	!	!LO:LB:g=original	!	!	!	!	!	!	!	!	!	!	!	!	!	!LO:LB:g=original	!	!	!
=13	=13	=13	=13	=13	=13	=13	=13	=13	=13	=13	=13	=13	=13	=13	=13	=13	=13	=13	=13	=13	=13
!LO:TX:a:i:t=Tasto	!	!	!	!	!	!	!	!LO:TX:a:t=3:mod=	!	!LO:TX:a:t=3:mod=	!	!	!	!	!	!	!	!	!	!	!
1AA-/	.	4dd\	.	4ff\	.	8aa-X\L|	.	0r	.	0r	.	0r	.	0r	.	1B-/	1b-\	2dd\	2ff\	2ff\	1bb-\
.	.	.	.	.	.	8aa-\|	.	.	.	.	.	.	.	.	.	.	.	.	.	.	.
.	.	4d\	.	4f/	.	(8gg\	.	.	.	.	.	.	.	.	.	.	.	.	.	.	.
.	.	.	.	.	.	8aa-\J)	.	.	.	.	.	.	.	.	.	.	.	.	.	.	.
!	!	!LO:SIC:s=8e-|L	!	!LO:SIC:s=8g|L	!	!	!	!	!	!	!	!	!	!	!	!	!	!	!	!	!
.	.	(8e-\L	.	8g/L	.	2gg\	.	.	.	.	.	.	.	.	.	.	.	2ee-\	2gg\	2gg\	.
!	!	!LO:SIC:s=(8e-	!	!LO:SIC:s=8g|	!	!	!	!	!	!	!	!	!	!	!	!	!	!	!	!	!
.	.	8e-\	.	8g/	.	.	.	.	.	.	.	.	.	.	.	.	.	.	.	.	.
!	!	!	!	!LO:SIC:s=(8f#	!	!	!	!	!	!	!	!	!	!	!	!	!	!	!	!	!
.	.	8d\	.	8f#X/	.	.	.	.	.	.	.	.	.	.	.	.	.	.	.	.	.
!	!	!	!	!LO:SIC:s=8gJ)	!	!	!	!	!	!	!	!	!	!	!	!	!	!	!	!	!
.	.	8e-\J)	.	8g/J	.	.	.	.	.	.	.	.	.	.	.	.	.	.	.	.	.
!	!	!	!	!	!	!LO:LB:g=original	!	!	!	!	!	!	!	!	!	!	!	!	!	!	!
=14	=14	=14	=14	=14	=14	=14	=14	=14	=14	=14	=14	=14	=14	=14	=14	=14	=14	=14	=14	=14	=14
1BB-/	.	2.e-\	.	2.an/	.	8gg-X|\L	.	.	.	.	.	.	.	.	.	1B-/	1b-\	2.ee-\	2.gg-X\	2.gg-X\	1bb-\
.	.	.	.	.	.	8gg-|\	.	.	.	.	.	.	.	.	.	.	.	.	.	.	.
.	.	.	.	.	.	(8ff\	.	.	.	.	.	.	.	.	.	.	.	.	.	.	.
.	.	.	.	.	.	8gg-\J)	.	.	.	.	.	.	.	.	.	.	.	.	.	.	.
.	.	.	.	.	.	8gg-\	.	.	.	.	.	.	.	.	.	.	.	.	.	.	.
.	.	.	.	.	.	4an/	.	.	.	.	.	.	.	.	.	.	.	.	.	.	.
.	.	4e-\	.	4c/	.	.	.	.	.	.	.	.	.	.	.	.	.	4ee-\	4gg-\	4gg-\	.
.	.	.	.	.	.	8a/	.	.	.	.	.	.	.	.	.	.	.	.	.	.	.
=15	=15	=15	=15	=15	=15	=15	=15	=15	=15	=15	=15	=15	=15	=15	=15	=15	=15	=15	=15	=15	=15
1BB-;/	.	4d\	.	4f/	.	8cc\L	.	1r	.	1r	.	1r	.	1r	.	1B-/;	1b-\;	4dd\	4ff\	1ff\;	1bb-\;
.	.	.	.	.	.	8b-\J	.	.	.	.	.	.	.	.	.	.	.	.	.	.	.
.	.	2d;\	.	2f;/	.	2b-;\	.	.	.	.	.	.	.	.	.	.	.	2.dd;\	2.ff;\	.	.
.	.	4r	.	4r	.	4r	.	.	.	.	.	.	.	.	.	.	.	.	.	.	.
!	!	!LO:LB:g=original	!	!	!	!LO:LB:g=original	!	!	!	!	!	!	!	!	!	!LO:LB:g=original	!LO:PB:g=original	!LO:LB:g=original	!	!	!LO:PB:g=original
=16||	=16||	=16||	=16||	=16||	=16||	=16||	=16||	=16||	=16||	=16||	=16||	=16||	=16||	=16||	=16||	=16||	=16||	=16||	=16||	=16||	=16||
!!!OMD:
!!!OMD-mod: Allegro
*M4/4	*	*M4/4	*	*M4/4	*	*M4/4	*	*M4/4	*	*M4/4	*	*M4/4	*	*M4/4	*	*M4/4	*M4/4	*M4/4	*M4/4	*M4/4	*M4/4
*met(c)	*	*met(c)	*	*met(c)	*	*met(c)	*	*met(c)	*	*met(c)	*	*met(c)	*	*met(c)	*	*met(c)	*met(c)	*met(c)	*met(c)	*met(c)	*met(c)
*mmet(c)	*	*mmet(c)	*	*mmet(c)	*	*mmet(c)	*	*mmet(c)	*	*mmet(c)	*	*mmet(c)	*	*mmet(c)	*	*mmet(c)	*mmet(c)	*mmet(c)	*mmet(c)	*mmet(c)	*mmet(c)
*	*	*	*	*tremolo	*	*	*	*	*	*	*	*	*	*	*	*	*	*	*	*	*
!	!	!	!	!	!	!	!LO:DY:t= :mod=%s	!	!	!	!	!	!	!	!	!	!	!	!	!	!
!	!	!LO:TX:rj:b:t=Pleni:mod=	!	!	!	!LO:TX:rj:b:t=Pleni:mod=	!LO:MO:mod=!LO&colon;DY&colon;ed=brack	!	!	!	!	!	!	!	!	!	!LO:TX:rj:b:t=Pleni:mod=	!LO:TX:rj:b:t=Pleni:mod=	!LO:TX:b:i:t=Solo:mod=	!	!LO:TX:rj:b:t=Pleni:mod=
!LO:TX:rj:a:B:t=Allegro:mod=	!	!LO:TX:rj:a:B:t=alle:mod=	!LO:DY:a:t=for:mod=%s	!LO:TX:rj:a:B:t=allo:mod=	!LO:DY:rj:a:t=for:mod=%s	!LO:TX:rj:a:B:t=allegro:mod=	!null	!LO:TX:rj:a:B:t=allo:mod=	!	!LO:TX:rj:a:B:t=Allegro:mod=	!	!LO:TX:rj:a:B:t=allo:mod=	!	!LO:TX:a:B:t=Allegro:mod=	!	!	!LO:TX:a:B:t=allo:mod=	!LO:TX:rj:a:B:t=allo:mod=	!LO:TX:rj:a:B:t=allo:mod=	!LO:TX:rj:a:B:t=Alle:mod=	!LO:TX:a:B:t=Allo:mod=
!	!	!	!	!	!	!	!	!	!	!	!	!	!	!	!	!	!	!	!	!	!LO:MO:mod=4r
4E-\	8 5 3	4E-/	f	16b-\LL	f	4b-\	f	2E-\	Ple-	2B-\	Ple-	2g\	Ple-	2b-\	Ple-	4r	4r	1b-\	1bb-\	1bb-\	8gg\L
.	.	.	.	16b-\	.	.	.	.	.	.	.	.	.	.	.	.	.	.	.	.	.
!	!	!	!	!	!	!	!	!	!	!	!	!	!	!	!	!	!	!	!	!	!LO:MO:mod=.
.	.	.	.	16b-\	.	.	.	.	.	.	.	.	.	.	.	.	.	.	.	.	8gg\J
.	.	.	.	16b-\	.	.	.	.	.	.	.	.	.	.	.	.	.	.	.	.	.
*	*	*	*	*	*	*tremolo	*	*	*	*	*	*	*	*	*	*	*	*	*	*	*
!	!	!	!	!	!	!	!	!	!	!	!	!	!	!	!	!	!	!	!	!	!LO:SIC:s=4gg
4e-\	3 _	4e-\	.	16b-\	.	16gg\LL	.	.	.	.	.	.	.	.	.	4e-\	8g\L	.	.	.	4ff\
.	.	.	.	16b-\	.	16gg\	.	.	.	.	.	.	.	.	.	.	.	.	.	.	.
.	.	.	.	16b-\	.	16gg\	.	.	.	.	.	.	.	.	.	.	8g\J	.	.	.	.
.	.	.	.	16b-\JJ	.	16gg\JJ	.	.	.	.	.	.	.	.	.	.	.	.	.	.	.
!	!	!	!	!	!	!	!	!	!	!	!	!	!	!	!	!	!	!	!	!	!LO:SIC:s=4ff
4d\	3 _	4d\	.	16b-\LL	.	16ff\LL	.	4D\	-ni	4B-\	-ni	4f\	-ni	4b-\	-ni	4r	4f\	.	.	.	4gg\
.	.	.	.	16b-\	.	16ff\	.	.	.	.	.	.	.	.	.	.	.	.	.	.	.
.	.	.	.	16b-\	.	16ff\	.	.	.	.	.	.	.	.	.	.	.	.	.	.	.
.	.	.	.	16b-\	.	16ff\JJ	.	.	.	.	.	.	.	.	.	.	.	.	.	.	.
4e-\	3 _	4e-\	.	16b-\	.	16gg\LL	.	4E-\	ſunt	4B-\	ſunt	4g\	ſunt	4b-\	ſunt	4e-\	4g\	.	.	.	4gg\
.	.	.	.	16b-\	.	16gg\	.	.	.	.	.	.	.	.	.	.	.	.	.	.	.
.	.	.	.	16b-\	.	16gg\	.	.	.	.	.	.	.	.	.	.	.	.	.	.	.
.	.	.	.	16b-\JJ	.	16gg\JJ	.	.	.	.	.	.	.	.	.	.	.	.	.	.	.
=17	=17	=17	=17	=17	=17	=17	=17	=17	=17	=17	=17	=17	=17	=17	=17	=17	=17	=17	=17	=17	=17
4en\	3 _	(4en\	.	16b-\LL	.	16gg\LL	.	(4En\	cae-	2B-\	cae-	(4g\	cae-	2b-\	cae-	2B-/	4g\	1b-\	1bb-\	1bb-\	4ee-\
.	.	.	.	16b-\	.	16gg\	.	.	.	.	.	.	.	.	.	.	.	.	.	.	.
.	.	.	.	16b-\	.	16gg\	.	.	.	.	.	.	.	.	.	.	.	.	.	.	.
.	.	.	.	16b-\	.	16gg\JJ	.	.	.	.	.	.	.	.	.	.	.	.	.	.	.
4f\	3 _	4f\)	.	16b-\	.	16aa-\LL	.	4F\)	.	.	.	4a-X\)	.	.	.	.	4a-\	.	.	.	4aa-\
.	.	.	.	16b-\	.	16aa-\	.	.	.	.	.	.	.	.	.	.	.	.	.	.	.
.	.	.	.	16b-\	.	16aa-\	.	.	.	.	.	.	.	.	.	.	.	.	.	.	.
.	.	.	.	16b-\JJ	.	16aa-\JJ	.	.	.	.	.	.	.	.	.	.	.	.	.	.	.
4f\	3 _	4f\|	.	16b-\LL	.	4aa-\	.	4F\	-li	4B-\	-li	4a-\	-li	4b-\	-li	4B-/	4a-\	.	.	.	4aa-\
.	.	.	.	16b-\	.	.	.	.	.	.	.	.	.	.	.	.	.	.	.	.	.
.	.	.	.	16b-\	.	.	.	.	.	.	.	.	.	.	.	.	.	.	.	.	.
.	.	.	.	16b-\	.	.	.	.	.	.	.	.	.	.	.	.	.	.	.	.	.
4r	x	4r	.	16b-\	.	4r	.	4r	.	4r	.	4r	.	4r	.	4r	4r	.	.	.	4r
.	.	.	.	16b-\	.	.	.	.	.	.	.	.	.	.	.	.	.	.	.	.	.
.	.	.	.	16b-\	.	.	.	.	.	.	.	.	.	.	.	.	.	.	.	.	.
.	.	.	.	16b-\JJ	.	.	.	.	.	.	.	.	.	.	.	.	.	.	.	.	.
=18	=18	=18	=18	=18	=18	=18	=18	=18	=18	=18	=18	=18	=18	=18	=18	=18	=18	=18	=18	=18	=18
4B-\	8 5 3	4F/	.	16b-\LL	.	4b-\	.	2F\	cae-	2B-\	cae-	2a-\	cae-	2b-\	cae-	2B-/	4r	1b-\	1bb-\	1bb-\	4r
.	.	.	.	16b-\	.	.	.	.	.	.	.	.	.	.	.	.	.	.	.	.	.
.	.	.	.	16b-\	.	.	.	.	.	.	.	.	.	.	.	.	.	.	.	.	.
.	.	.	.	16b-\	.	.	.	.	.	.	.	.	.	.	.	.	.	.	.	.	.
4f\	_ 3	4f\	.	16b-\	.	16aa-\LL	.	.	.	.	.	.	.	.	.	.	4a-\	.	.	.	4aa-\
.	.	.	.	16b-\	.	16aa-\	.	.	.	.	.	.	.	.	.	.	.	.	.	.	.
.	.	.	.	16b-\	.	16aa-\	.	.	.	.	.	.	.	.	.	.	.	.	.	.	.
.	.	.	.	16b-\JJ	.	16aa-\JJ	.	.	.	.	.	.	.	.	.	.	.	.	.	.	.
!LO:SIC:s=4e-	!	!LO:SIC:s=4e-	!	!	!	!	!	!LO:SIC:s=4E-	!	!	!	!	!	!	!	!	!	!	!	!	!
4e-X\	_ 3	4en\	.	16b-\LL	.	16gg\LL	.	4E-X\	-li	4B-\	-li	4g\	-li	4b-\	-li	2B-/	4g\	.	.	.	4gg\
.	.	.	.	16b-\	.	16gg\	.	.	.	.	.	.	.	.	.	.	.	.	.	.	.
.	.	.	.	16b-\	.	16gg\	.	.	.	.	.	.	.	.	.	.	.	.	.	.	.
.	.	.	.	16b-\	.	16gg\JJ	.	.	.	.	.	.	.	.	.	.	.	.	.	.	.
4f\	_ 3	4f\	.	16b-\	.	16aa-\LL	.	4F\	et	4B-\	et	4a-\	et	4b-\	et	.	4a-\	.	.	.	4aa-\
.	.	.	.	16b-\	.	16aa-\	.	.	.	.	.	.	.	.	.	.	.	.	.	.	.
.	.	.	.	16b-\	.	16aa-\	.	.	.	.	.	.	.	.	.	.	.	.	.	.	.
.	.	.	.	16b-\JJ	.	16aa-\JJ	.	.	.	.	.	.	.	.	.	.	.	.	.	.	.
!	!	!	!	!LO:LB:g=original	!	!	!	!	!	!	!	!LO:LB:g=original	!	!	!	!	!	!	!	!	!
=19	=19	=19	=19	=19	=19	=19	=19	=19	=19	=19	=19	=19	=19	=19	=19	=19	=19	=19	=19	=19	=19
4f#X\	_ 3	(4f#X\	.	16b-\LL	.	16aan\LL	.	(4F#X\	ter-	2B-\	ter-	(4an\	ter-	2b-\	ter-	2B-/	4aX\	1b-\	1bb-\	1bb-\	4aan\
.	.	.	.	16b-\	.	16aan\	.	.	.	.	.	.	.	.	.	.	.	.	.	.	.
.	.	.	.	16b-\	.	16aan\	.	.	.	.	.	.	.	.	.	.	.	.	.	.	.
.	.	.	.	16b-\	.	16aan\JJ	.	.	.	.	.	.	.	.	.	.	.	.	.	.	.
4g\	.	4g\)	.	16b-\	.	16bb-X\LL	.	4G\)	.	.	.	4b-\)	.	.	.	.	4b-\	.	.	.	4bb-\
.	.	.	.	16b-\	.	16bb-X\	.	.	.	.	.	.	.	.	.	.	.	.	.	.	.
.	.	.	.	16b-\	.	16bb-X\	.	.	.	.	.	.	.	.	.	.	.	.	.	.	.
.	.	.	.	16b-\JJ	.	16bb-X\JJ	.	.	.	.	.	.	.	.	.	.	.	.	.	.	.
*	*	*	*	*	*	*Xtremolo	*	*	*	*	*	*	*	*	*	*	*	*	*	*	*
!	!	!LO:SIC:s=4g|	!	!	!	!	!	!	!	!	!	!	!	!	!	!	!	!	!	!	!
4g\	.	4g\	.	16b-\LL	.	4bb-\	.	2G\	-ra	4B-\	-ra	4b-\	-ra	4b-\	-ra	4B-/	4b-\	.	.	.	4bb-\
.	.	.	.	16b-\	.	.	.	.	.	.	.	.	.	.	.	.	.	.	.	.	.
.	.	.	.	16b-\	.	.	.	.	.	.	.	.	.	.	.	.	.	.	.	.	.
.	.	.	.	16b-\	.	.	.	.	.	.	.	.	.	.	.	.	.	.	.	.	.
*custos:G	*	*	*	*	*	*	*	*	*	*	*	*	*	*	*	*	*	*	*	*	*
4r	x	4r	.	16b-\	.	4r	.	.	.	4r	.	4r	.	4r	.	4B-/	4r	.	.	.	4r
.	.	.	.	16b-\	.	.	.	.	.	.	.	.	.	.	.	.	.	.	.	.	.
.	.	.	.	16b-\	.	.	.	.	.	.	.	.	.	.	.	.	.	.	.	.	.
.	.	.	.	16b-\JJ	.	.	.	.	.	.	.	.	.	.	.	.	.	.	.	.	.
!LO:LB:g=original	!	!	!	!	!	!	!	!	!	!	!	!	!	!	!	!	!	!	!	!	!
=20	=20	=20	=20	=20	=20	=20	=20	=20	=20	=20	=20	=20	=20	=20	=20	=20	=20	=20	=20	=20	=20
*tremolo	*	*	*	*	*	*	*	*	*	*	*	*	*	*	*	*	*	*	*	*	*
8G\L	6 3	2.g\	.	16b-\LL	.	8b-\L	.	2.G\	glo-	2.e-\	glo-	(2.b-\	glo-	2.ee-\	glo-	2.G/	2.e-\	4b-\	4ee-\	4ee-\	2.ee-\
.	.	.	.	16b-\	.	.	.	.	.	.	.	.	.	.	.	.	.	.	.	.	.
8G\	.	.	.	16b-\	.	8ee-\J	.	.	.	.	.	.	.	.	.	.	.	.	.	.	.
.	.	.	.	16b-\	.	.	.	.	.	.	.	.	.	.	.	.	.	.	.	.	.
8G\	.	.	.	16b-\	.	2ee-\	.	.	.	.	.	.	.	.	.	.	.	2b-\	2ee-\	2ee-\	.
.	.	.	.	16b-\	.	.	.	.	.	.	.	.	.	.	.	.	.	.	.	.	.
8G\J	_ _	.	.	16b-\	.	.	.	.	.	.	.	.	.	.	.	.	.	.	.	.	.
.	.	.	.	16b-\JJ	.	.	.	.	.	.	.	.	.	.	.	.	.	.	.	.	.
*Xtremolo	*	*	*	*	*	*	*	*	*	*	*	*	*	*	*	*	*	*	*	*	*
8G\L	.	.	.	16a-X/LL	.	.	.	.	.	.	.	.	.	.	.	.	.	.	.	.	.
.	.	.	.	16a-X/	.	.	.	.	.	.	.	.	.	.	.	.	.	.	.	.	.
8G\	x	.	.	16a-X/	.	.	.	.	.	.	.	.	.	.	.	.	.	.	.	.	.
.	.	.	.	16a-X/JJ	.	.	.	.	.	.	.	.	.	.	.	.	.	.	.	.	.
!	!	!LO:SIC:s=8fL	!	!	!	!	!	!LO:SIC:s=8FL	!	!	!	!	!	!	!	!LO:SIC:s=(8B-L	!LO:SIC:s=(8fL	!	!	!LO:LB:g=original	!LO:SIC:s=(8ffL
8F\	6 3	8fn\L	.	16g/LL	.	8dd\L	.	8Fn\L	-ri-	8d\L	-ri-	8a-\L	.	8dd\L	-ri-	8B-/L	8f\L	(8a-\L	(8dd\L	(8dd\L	8ff\L
.	.	.	.	16g/	.	.	.	.	.	.	.	.	.	.	.	.	.	.	.	.	.
!	!	!	!	!	!	!	!	!	!	!	!	!	!	!	!	!LO:SIC:s=8e-J)	!LO:SIC:s=8gJ)	!	!	!	!LO:SIC:s=8ggJ)
8E-\J	6 3	8e-\J	.	16g/	.	8cc\J	.	8E-\J	.	8c\J	.	8g\J	.	8cc\J	.	8e-/J	8g\J	8g\J)	8cc\J)	8cc\J)	8gg\J
.	.	.	.	16g/JJ	.	.	.	.	.	.	.	.	.	.	.	.	.	.	.	.	.
!	!	!	!	!	!	!	!	!	!	!LO:LB:g=original	!	!	!	!LO:LB:g=original	!	!	!	!	!	!	!
=21	=21	=21	=21	=21	=21	=21	=21	=21	=21	=21	=21	=21	=21	=21	=21	=21	=21	=21	=21	=21	=21
*tremolo	*	*	*	*	*	*	*	*	*	*	*	*	*	*	*	*	*	*	*	*	*
8D\L	6 5 3	8d\L	.	16b-\LL	.	8b-\L	.	4D\	-a	4B-\	-a	4b-\	.	4b-\	-a	4B-/	4f\	4f/	4b-\	4b-\	4ff\
.	.	.	.	16b-\	.	.	.	.	.	.	.	.	.	.	.	.	.	.	.	.	.
8D\	.	8d\J	.	16b-\	.	8aa-\J	.	.	.	.	.	.	.	.	.	.	.	.	.	.	.
.	.	.	.	16b-\JJ	.	.	.	.	.	.	.	.	.	.	.	.	.	.	.	.	.
*	*	*tremolo	*	*	*	*	*	*	*	*	*	*	*	*	*	*	*	*	*	*	*
8D\	.	8b-\L	.	16ff\LL	.	2aa-\	.	2B-\	glo-	2f\	glo-	2a-\)	.	2dd\	glo-	2B-/	2f\	2dd\	2aa-\	2aa-\	2ff\
.	.	.	.	16ff\	.	.	.	.	.	.	.	.	.	.	.	.	.	.	.	.	.
8D\J	x _ _	8b-\	.	16ff\	.	.	.	.	.	.	.	.	.	.	.	.	.	.	.	.	.
.	.	.	.	16ff\	.	.	.	.	.	.	.	.	.	.	.	.	.	.	.	.	.
*Xtremolo	*	*	*	*	*	*	*	*	*	*	*	*	*	*	*	*	*	*	*	*	*
8D\L	.	8b-\	.	16ff\	.	.	.	.	.	.	.	.	.	.	.	.	.	.	.	.	.
.	.	.	.	16ff\	.	.	.	.	.	.	.	.	.	.	.	.	.	.	.	.	.
8D\	x	8b-\	.	16ff\	.	.	.	.	.	.	.	.	.	.	.	.	.	.	.	.	.
.	.	.	.	16ff\JJ	.	.	.	.	.	.	.	.	.	.	.	.	.	.	.	.	.
8E-\	.	8b-\	.	16ee-X\LL	.	4gg\	.	8E-\	-ri-	8e-\	-ri-	8g\	-ri-	8ee-\	-ri-	4e-\	4g\	8cc\L	4gg\	4gg\	4gg\
.	.	.	.	16ee-X\	.	.	.	.	.	.	.	.	.	.	.	.	.	.	.	.	.
8E-\J	.	8b-\J	.	16ee-X\	.	.	.	8E-\	-a	8e-\	-a	8g\	-a	8ee-\	-a	.	.	8ee-\J	.	.	.
.	.	.	.	16ee-X\JJ	.	.	.	.	.	.	.	.	.	.	.	.	.	.	.	.	.
*	*	*	*	*Xtremolo	*	*	*	*	*	*	*	*	*	*	*	*	*	*	*	*	*
!	!	!LO:LB:g=original	!	!	!	!LO:PB:g=original	!	!LO:LB:g=original	!	!	!	!	!	!	!	!	!	!	!	!	!
=22	=22	=22	=22	=22	=22	=22	=22	=22	=22	=22	=22	=22	=22	=22	=22	=22	=22	=22	=22	=22	=22
8A-\L	6 3	8c\L	.	(8b-/L	.	8gg\L	.	2A-\	tu-	2c\	tu-	2a-\	tu-	2ff\	tu-	4r	4r	4r	4r	4r	4r
8A-\	_ _	8c\	.	8a-/	.	8ff\	.	.	.	.	.	.	.	.	.	.	.	.	.	.	.
8F\	6 3	8c\	.	8cc/	.	8aa-\	.	.	.	.	.	.	.	.	.	4B-/	4f\	4ff\	4aa-\	4aa-\	4ff\
8F\J	_ _	8c\J	.	8a-/J)	.	8ff\J	.	.	.	.	.	.	.	.	.	.	.	.	.	.	.
*	*	*Xtremolo	*	*	*	*	*	*	*	*	*	*	*	*	*	*	*	*	*	*	*
!LO:TX:t=P:problem=mixed beam	!	!	!	!	!	!	!	!	!	!LO:SIC:s=2B-	!	!	!	!	!	!	!	!	!	!	!
8B-\L	6 4	8B-/L	.	4g/	.	4ee-\	.	2B-\	-a	2c\	-a	(4g\	-a	(4ee-\	-a	4e-\	4g\	4ee-\	4gg\	4gg\	4gg\
8B-\	.	8B-/	.	.	.	.	.	.	.	.	.	.	.	.	.	.	.	.	.	.	.
8BB-/	.	8A-/	.	4f/	.	4ddm\	.	.	.	.	.	4f\)	.	4dd\)	.	4B-/	4f\	4dd\	4ff\	4ff\	4ff\
8BB-/J	.	8A-/J	.	.	.	.	.	.	.	.	.	.	.	.	.	.	.	.	.	.	.
!	!	!	!	!	!	!	!	!	!	!	!	!	!	!	!	!	!LO:LB:g=original	!	!	!	!LO:LB:g=original
=23	=23	=23	=23	=23	=23	=23	=23	=23	=23	=23	=23	=23	=23	=23	=23	=23	=23	=23	=23	=23	=23
*tremolo	*	*	*	*tremolo	*	*	*	*	*	*	*	*	*	*	*	*	*	*	*	*	*
8G\L	6 3	8E-/L	.	16b-\LL	.	(8b-\L	.	2.G\	glo-	2.e-\	glo-	(2.b-\	glo-	2.ee-\	glo-	2.G/	2e-\	4b-\	4ee-\	4ee-\	2ee-\
.	.	.	.	16b-\	.	.	.	.	.	.	.	.	.	.	.	.	.	.	.	.	.
8G\	.	8E-/J	.	16b-\	.	8ee-\J)	.	.	.	.	.	.	.	.	.	.	.	.	.	.	.
.	.	.	.	16b-\	.	.	.	.	.	.	.	.	.	.	.	.	.	.	.	.	.
*	*	*tremolo	*	*	*	*	*	*	*	*	*	*	*	*	*	*	*	*	*	*	*
8G\	.	8g\L	.	16b-\	.	2ee-\	.	.	.	.	.	.	.	.	.	.	.	2b-\	2ee-\	2ee-\	.
.	.	.	.	16b-\	.	.	.	.	.	.	.	.	.	.	.	.	.	.	.	.	.
8G\J	.	8g\	.	16b-\	.	.	.	.	.	.	.	.	.	.	.	.	.	.	.	.	.
.	.	.	.	16b-\JJ	.	.	.	.	.	.	.	.	.	.	.	.	.	.	.	.	.
*Xtremolo	*	*	*	*	*	*	*	*	*	*	*	*	*	*	*	*	*	*	*	*	*
8G\L	6 3	8g\	.	16a-/LL	.	.	.	.	.	.	.	.	.	.	.	.	4f\	.	.	.	4ff\
.	.	.	.	16a-/	.	.	.	.	.	.	.	.	.	.	.	.	.	.	.	.	.
8G\	.	8g\J	.	16a-/	.	.	.	.	.	.	.	.	.	.	.	.	.	.	.	.	.
.	.	.	.	16a-/JJ	.	.	.	.	.	.	.	.	.	.	.	.	.	.	.	.	.
*	*	*Xtremolo	*	*	*	*	*	*	*	*	*	*	*	*	*	*	*	*	*	*	*
!	!	!LO:SIC:s=8fL	!	!	!	!	!	!	!	!	!	!	!	!	!	!LO:SIC:s=(8B-L	!	!	!LO:PB:g=original	!LO:SIC:s=(8ddL	!
8F\	6 3	8fn\L	.	16g/LL	.	8ee-\L|	.	8F\L	-ri-	8d\L	-ri-	8a-\L	.	8dd\L	-ri-	8B-/L	4g\	(8a-\L	(8dd\L	8dd\L	4gg\
.	.	.	.	16g/	.	.	.	.	.	.	.	.	.	.	.	.	.	.	.	.	.
!	!	!	!	!	!	!	!	!	!	!	!	!	!	!	!	!LO:SIC:s=8e-J)	!	!	!	!LO:SIC:s=8ccJ)	!
8E-\J	.	8e-\J	.	16g/	.	8cc\J|	.	8E-\J	.	8c\J	.	8g\J	.	8cc\J	.	8e-/J	.	8g\J)	8cc\J)	8cc\J	.
.	.	.	.	16g/JJ	.	.	.	.	.	.	.	.	.	.	.	.	.	.	.	.	.
=24	=24	=24	=24	=24	=24	=24	=24	=24	=24	=24	=24	=24	=24	=24	=24	=24	=24	=24	=24	=24	=24
8F\L	6 4	8d\L	.	16b-\LL	.	(8b-\L	.	4D\	-a	4B-\	-a	4b-\	.	4b-\	-a	4B-/	4f\	4f/	4a-\	4a-\	4ff\
.	.	.	.	16b-\	.	.	.	.	.	.	.	.	.	.	.	.	.	.	.	.	.
8F\	.	8d\J	.	16b-\	.	8aa-\J)	.	.	.	.	.	.	.	.	.	.	.	.	.	.	.
.	.	.	.	16b-\JJ	.	.	.	.	.	.	.	.	.	.	.	.	.	.	.	.	.
*	*	*tremolo	*	*	*	*	*	*	*	*	*	*	*	*	*	*	*	*	*	*	*
8D\	6 5	8b-\L	.	16ff\LL	.	2aa-\	.	2B-\	glo-	2f\	glo-	2a-\)	.	2dd\	.	2B-/	2f\	2ff\	2aa-\	2aa-\	2ff\
.	.	.	.	16ff\	.	.	.	.	.	.	.	.	.	.	.	.	.	.	.	.	.
*custos:D	*	*	*	*	*	*	*	*	*	*	*	*	*	*	*	*	*	*	*	*	*
8D\J	.	8b-\	.	16ff\	.	.	.	.	.	.	.	.	.	.	.	.	.	.	.	.	.
.	.	.	.	16ff\	.	.	.	.	.	.	.	.	.	.	.	.	.	.	.	.	.
!LO:LB:g=original	!	!	!	!	!	!	!	!	!	!	!	!	!	!	!	!	!	!	!	!	!
8D\L	6 5	8b-\	.	16ff\	.	.	.	.	.	.	.	.	.	.	.	.	.	.	.	.	.
.	.	.	.	16ff\	.	.	.	.	.	.	.	.	.	.	.	.	.	.	.	.	.
8D\	.	8b-\	.	16ff\	.	.	.	.	.	.	.	.	.	.	.	.	.	.	.	.	.
.	.	.	.	16ff\JJ	.	.	.	.	.	.	.	.	.	.	.	.	.	.	.	.	.
!	!	!	!	!	!	!	!	!	!	!	!	!	!	!	!	!LO:SIC:s=4e-	!	!	!	!	!
8E-\	5 3	8b-\	.	16ee-\LL	.	4gg\	.	8E-\	-ri-	8e-\	-ri-	8g\	-ri-	4ee-\	.	4f\	4g\	4ee-\	4gg\	4gg\	4gg\
.	.	.	.	16ee-\	.	.	.	.	.	.	.	.	.	.	.	.	.	.	.	.	.
8E-\J	.	8b-\J	.	16ee-\	.	.	.	8E-\	-a	8e-\	-a	8g\	-a	.	.	.	.	.	.	.	.
.	.	.	.	16ee-\JJ	.	.	.	.	.	.	.	.	.	.	.	.	.	.	.	.	.
*	*	*	*	*Xtremolo	*	*	*	*	*	*	*	*	*	*	*	*	*	*	*	*	*
=25	=25	=25	=25	=25	=25	=25	=25	=25	=25	=25	=25	=25	=25	=25	=25	=25	=25	=25	=25	=25	=25
8A-\L	6 3	8c/L	.	8b-/L	.	(8gg\L	.	2A-\	.	(2c\	tu-	2a-\	tu-	2ff\	tu-	4r	4r	4r	4r	4r	4r
8A-\	.	8c/	.	8a-/	.	8ff\)	.	.	.	.	.	.	.	.	.	.	.	.	.	.	.
8F\	8 3	8c/	.	8cc/	.	8aa-\	.	.	.	.	.	.	.	.	.	4B-/	4f\	4ff\	4aa-\	4aa-\	4ff\
8F\J	.	8c/J	.	8a-/J	.	8ff\J	.	.	.	.	.	.	.	.	.	.	.	.	.	.	.
*	*	*Xtremolo	*	*	*	*	*	*	*	*	*	*	*	*	*	*	*	*	*	*	*
!LO:TX:t=P:problem=mixed beam	!	!	!	!LO:SIC:s=4g|	!	!	!	!	!	!	!	!	!	!	!	!	!	!	!	!	!
8B-\L	6 4	8B-/L	.	4g/	.	4ee-\|	.	2B-\	.	2B-\)	.	(4g\	.	4ee-\	.	4e-\	4g\	4ee-\	4gg\	4gg\	4gg\
8B-\	.	8B-/	.	.	.	.	.	.	.	.	.	.	.	.	.	.	.	.	.	.	.
!	!	!	!	!LO:SIC:s=4f|	!	!	!	!	!	!	!	!	!	!	!	!	!	!	!	!	!
8BB-/	7 5	8A-/	.	4f/	.	4dd\|	.	.	.	.	.	4f\)	.	4dd\	.	4B-/	4f\	4dd\	4ff\	4ff\	4ff\
8BB-/J	.	8A-/J	.	.	.	.	.	.	.	.	.	.	.	.	.	.	.	.	.	.	.
!	!	!	!	!	!	!	!	!	!	!	!	!	!	!	!	!LO:LB:g=original	!	!	!	!	!
=26	=26	=26	=26	=26	=26	=26	=26	=26	=26	=26	=26	=26	=26	=26	=26	=26	=26	=26	=26	=26	=26
!	!	!	!	!	!	!	!	!LO:TX:rj:a:i:t=Solo	!	!	!	!	!	!	!	!	!	!	!	!	!
8E-\L|	.	4E-/	.	4b-/ 4g/	.	4ee-\	.	8E-\L	glo-	4B-\	-a	2g\	-a	4ee-\	-a	4G/	4e-\	4b-\	4ee-\	4ee-\	4ee-\
8e-\J|	.	.	.	.	.	.	.	8e-\J	.	.	.	.	.	.	.	.	.	.	.	.	.
!	!	!	!	!	!	!	!LO:TX:t=P:problem=dźwięki oktawę niżej dopisane ołówkiem	!	!	!	!	!	!	!	!	!	!	!	!	!	!
2e-\|	.	4r	.	4r	.	4r	.	2e-\	.	4r	.	.	.	4r	.	4r	4r	4r	4r	4r	4r
!	!	!	!	!	!	!	!	!	!	!	!	!	!	!	!	!	!	!	!LO:MO:mod=2r	!LO:MO:mod=2r	!
.	.	2r	.	2r	.	2r	.	.	.	2r	.	2r	.	2r	.	2r	2r	2r	4r	4r	2r
!	!	!	!	!	!	!	!	!	!	!	!	!	!	!	!	!	!	!	!LO:MO:mod=.	!LO:MO:mod=.	!
8d\L|	.	.	.	.	.	.	.	8d\	-ri-	.	.	.	.	.	.	.	.	.	4r	4r	.
8c\J|	.	.	.	.	.	.	.	8c\	-a	.	.	.	.	.	.	.	.	.	.	.	.
!	!	!	!	!	!	!	!	!	!	!	!	!LO:LB:g=original	!	!	!	!	!	!	!	!	!
=27	=27	=27	=27	=27	=27	=27	=27	=27	=27	=27	=27	=27	=27	=27	=27	=27	=27	=27	=27	=27	=27
*	*	*	*	*tremolo	*	*	*	*	*	*	*	*	*	*	*	*	*	*	*	*	*
!	!	!	!	!	!	!LO:TX:t=P:problem=mixed beam	!	!	!	!	!	!	!	!	!	!LO:TX:a:t=1:mod=	!LO:TX:a:t=1:mod=	!	!LO:TX:a:t=1:mod=	!LO:TX:a:t=1:mod=	!LO:TX:a:t=1:mod=
8B-\L	3	8B-/L	.	8e-/L	.	8e-/L	.	8B-\L	glo-	2.e-\	glo-	2.e-\	glo-	8dd\L	glo-	1r	1r	1r	1r	1r	1r
8c\J	3	8c/J	.	8e-/	.	8ee-\J	.	8c\J	.	.	.	.	.	8ee-\J	.	.	.	.	.	.	.
2c\	3	2c/	.	8e-/	.	2ee-\	.	2c\	.	.	.	.	.	2ee-\	.	.	.	.	.	.	.
.	.	.	.	8e-/J	.	.	.	.	.	.	.	.	.	.	.	.	.	.	.	.	.
.	.	.	.	8e-/L	.	.	.	.	.	.	.	.	.	.	.	.	.	.	.	.	.
.	.	.	.	8e-/	.	.	.	.	.	.	.	.	.	.	.	.	.	.	.	.	.
8B-\L	3	8B-/L	.	8e-/	.	(8dd\L	.	8B-\	-ri-	8e-\	-ri-	8e-\	-ri-	8dd\	-ri-	.	.	.	.	.	.
!	!	!	!	!	!	!	!	!LO:SIC:s=8A-	!	!	!	!	!	!LO:SIC:s=8cc	!	!	!	!	!	!	!
8A-\J	3	8A-/J	.	8e-/J	.	8cc\J)	.	8A-X\	-a	8e-\	-a	8e-\	-a	8dd\	-a	.	.	.	.	.	.
!	!	!LO:LB:g=original	!	!	!	!	!	!	!	!	!	!	!	!	!	!	!	!LO:LB:g=original	!	!	!
=28	=28	=28	=28	=28	=28	=28	=28	=28	=28	=28	=28	=28	=28	=28	=28	=28	=28	=28	=28	=28	=28
*	*	*	*	*	*	*tremolo	*	*	*	*	*	*	*	*	*	*	*	*	*	*	*
8G\L	6 3	8G/L	.	16e-/LL	.	16b-/LL	.	(4G\	tu-	4B-\	tu-	(4g\	tu-	(4b-\	tu-	4g\	4b-\	4gg\	4bb-\	4bb-\	4bb-\
.	.	.	.	16e-/	.	16b-/	.	.	.	.	.	.	.	.	.	.	.	.	.	.	.
8G\	6 3	8G/	.	16e-/	.	16b-/	.	.	.	.	.	.	.	.	.	.	.	.	.	.	.
.	.	.	.	16e-/JJ	.	16b-/JJ	.	.	.	.	.	.	.	.	.	.	.	.	.	.	.
8A-\	.	8A-/	.	16f/LL	.	16a-/LL	.	4A-\	.	4c\	.	4f\	.	4a-\	.	4f\	4a-\	4ff\	4aa-\	4aa-\	4aa-\
.	.	.	.	16f/	.	16a-/	.	.	.	.	.	.	.	.	.	.	.	.	.	.	.
8A-\J	.	8A-/J	.	16f/	.	16a-/	.	.	.	.	.	.	.	.	.	.	.	.	.	.	.
.	.	.	.	16f/JJ	.	16a-/JJ	.	.	.	.	.	.	.	.	.	.	.	.	.	.	.
*	*	*tremolo	*	*	*	*	*	*	*	*	*	*	*	*	*	*	*	*	*	*	*
!LO:TX:t=P:problem=mixed beam	!	!	!	!	!	!	!	!	!	!	!	!	!	!	!	!	!	!LO:SIC:s=4ee-	!	!	!
8B-\L	6 4	8B-/L	.	16e-/LL	.	16g/LL	.	4B-\)	.	2B-\	.	4e-\	.	4g\	.	4e-\	4g\	(4ee-\	4gg\	4gg\	4gg\
.	.	.	.	16e-/	.	16g/	.	.	.	.	.	.	.	.	.	.	.	.	.	.	.
8B-\	.	8B-/	.	16e-/	.	16g/	.	.	.	.	.	.	.	.	.	.	.	.	.	.	.
.	.	.	.	16e-/JJ	.	16g/JJ	.	.	.	.	.	.	.	.	.	.	.	.	.	.	.
!	!	!	!	!	!	!	!	!	!	!	!	!	!	!	!	!	!	!LO:SIC:s=4dd	!	!	!
8BB-/	7 5	8B-/	.	16d/LL	.	16f/LL	.	4BB-/	.	.	.	4d\)	.	4f\)	.	4B-/	4f\	4dd\)	4ff\	4ff\	4ff\
.	.	.	.	16d/	.	16f/	.	.	.	.	.	.	.	.	.	.	.	.	.	.	.
8BB-/J	.	8B-/J	.	16d/	.	16f/	.	.	.	.	.	.	.	.	.	.	.	.	.	.	.
.	.	.	.	16d/JJ	.	16f/JJ	.	.	.	.	.	.	.	.	.	.	.	.	.	.	.
*	*	*Xtremolo	*	*Xtremolo	*	*Xtremolo	*	*	*	*	*	*	*	*	*	*	*	*	*	*	*
!LO:LB:g=original	!	!	!	!	!	!	!	!	!	!	!	!	!	!LO:LB:g=original	!	!	!	!	!	!	!
=29	=29	=29	=29	=29	=29	=29	=29	=29	=29	=29	=29	=29	=29	=29	=29	=29	=29	=29	=29	=29	=29
!	!	!	!	!	!LO:DY:a:t=pio:mod= 	!	!	!	!	!	!	!	!	!	!	!LO:TX:a:i:t=Solo:mod=	!LO:TX:a:i:t=Solo:mod=	!	!	!	!LO:TX:a:i:t=Solo:mod=
4E-\	5 3	4E-/	.	4e-/	p	4e-/	.	2E-\	-a	4B-\	-a	4e-\	-a	4e-/	-a	4G/	4e-\	4g\	4ee-\	4ee-\	4ee-\
!LO:MO:mod=!LO&colon;TX&colon;t=Solo	!	!	!	!	!	!	!	!	!	!	!	!	!	!	!	!	!	!	!	!	!
!LO:TX:a:t=solo	!	!	!	!	!LO:DY:t= :mod=%s	!	!LO:DY:a:t=pio:mod=%s	!	!	!	!	!	!	!	!	!	!	!	!	!	!
4E-\	3	4r	.	4g/	p	4b-\	p	.	.	4r	.	4g\	O-	4b-\	O-	4g\	4b-\	4ee-\	4bb-\	4bb-\	4bb-\
4G\	.	2r	.	4g/	.	4b-\	.	2r	.	2r	.	4g\	-san-	4b-\	-san-	4g\	4b-\	4gg\	4bb-\	4bb-\	4bb-\
4B-\	.	.	.	4g/	.	4b-\	.	.	.	.	.	4g\	-na	4b-\	-na	4g\	4b-\	4gg\	4bb-\	4bb-\	4bb-\
!	!	!	!	!	!	!LO:LB:g=original	!	!LO:LB:g=original	!	!LO:LB:g=original	!	!	!	!	!	!	!	!	!	!LO:PB:g=original	!
=30	=30	=30	=30	=30	=30	=30	=30	=30	=30	=30	=30	=30	=30	=30	=30	=30	=30	=30	=30	=30	=30
!	!	!	!	!	!	!	!	!LO:TX:a:t=3:mod=	!	!LO:TX:a:t=3:mod=	!	!	!	!	!	!	!	!	!	!	!
4e-\	.	4E-/	.	4.g/	.	4.b-/	.	0r	.	0r	.	4.g\	in	4.b-\	in	4.g\	4.b-\	4.gg\	4.bb-\	4.bb-\	4.bb-\
4E-\	.	4e-\	.	.	.	.	.	.	.	.	.	.	.	.	.	.	.	.	.	.	.
.	.	.	.	8e-/	.	8g/	.	.	.	.	.	8e-\	ex-	8g\	ex-	8e-\	8g\	8ee-\	8gg\	8gg\	8gg\
!	!	!	!	!	!	!	!	!	!	!	!	!	!	!	!	!LO:SIC:s=(8a-L	!LO:SIC:s=(8ccL	!LO:SIC:s=(8aa-L	!LO:SIC:s=(8cccL	!LO:SIC:s=(8cccL	!LO:SIC:s=(8cccL
4r	.	4r	.	(8a-/L	.	(8cc/L	.	.	.	.	.	8a-\L	-cel-	8cc\L	-cel-	8a-\L	8cc\L	8aa-\L	8ccc\L	8ccc\L	8ccc\L
!	!	!	!	!	!	!	!	!	!	!	!	!LO:SIC:s=8g	!	!	!	!	!LO:SIC:s=8b-	!	!LO:SIC:s=8bb-	!LO:SIC:s=8bb-	!
.	.	.	.	8g/	.	8b-/	.	.	.	.	.	(8g\	.	8b-\	.	8g\	(8b-\	8gg\	(8bb-\	(8bb-\	8bb-\
!	!	!	!	!	!	!	!	!	!	!	!	!LO:SIC:s=8f	!	!	!	!	!	!LO:SIC:s=8ff	!	!	!
4C/	7 5	4c\	.	8f/	.	8a-/	.	.	.	.	.	8f\)	.	8a-\	.	8f\	8a-\	(8ff\	8aa-\	8aa-\	8aa-\
!	!	!	!	!	!	!	!	!	!	!	!	!	!	!	!	!LO:SIC:s=8eJ)	!	!	!	!	!LO:SIC:s=8ggJ)
.	.	.	.	8en/J)	.	8g/J)	.	.	.	.	.	8en\J	.	8g\J	.	8e-\J	8g\J)	8eeX\J)	8gg\J)	8gg\J)	8gg\J
!	!	!	!	!	!	!	!	!	!	!	!	!	!	!	!	!	!LO:LB:g=original	!	!	!	!
=31	=31	=31	=31	=31	=31	=31	=31	=31	=31	=31	=31	=31	=31	=31	=31	=31	=31	=31	=31	=31	=31
4F\	5 2	4F/	.	4f/	.	4a-/	.	.	.	.	.	4f\	-sis	4a-\	-sis	4f\	4a-\	4ff\	4aa-\	4aa-\	4aa-\
4F\	_ _	4F/	.	4f/	.	4a-/	.	.	.	.	.	4f\	O-	4a-\	O-	4f\	4a-\	4ff\	4aa-\	4aa-\	4aa-\
!	!	!	!	!	!	!	!	!	!	!	!	!	!	!	!	!	!	!	!	!	!LO:LB:g=original
!LO:TX:a:t=unison:mod=	!	!	!	!	!	!	!	!	!	!	!	!	!	!	!	!	!	!	!	!	!
2r	x	2r	.	4f/	.	4a-/	.	.	.	.	.	4f\	-san-	4a-\	-san-	4B-/	4f\	4ff\	4aa-\	4aa-\	4ff\
.	.	.	.	4f/	.	4a-/	.	.	.	.	.	4f\	-na	4a-\	-na	4B-/	4f\	4ff\	4aa-\	4aa-\	4ff\
!	!	!	!	!LO:LB:g=original	!	!	!	!	!	!	!	!	!	!	!	!	!	!	!	!	!
=32	=32	=32	=32	=32	=32	=32	=32	=32	=32	=32	=32	=32	=32	=32	=32	=32	=32	=32	=32	=32	=32
4r	.	4r	.	4.f/	.	4.a-/	.	1r	.	1r	.	4.f\	in	4.a-\	in	2B-/	2f\	4.ff\	4.aa-\	4.aa-\	2ff\
4BB-/	7 5	4B-/	.	.	.	.	.	.	.	.	.	.	.	.	.	.	.	.	.	.	.
.	.	.	.	8d/	.	8f/	.	.	.	.	.	8d\	ex-	8f\	ex-	.	.	8dd\	8ff\	8ff\	.
!	!	!	!	!	!	!	!	!	!	!	!	!	!	!	!	!LO:SIC:s=(8e-L	!LO:SIC:s=(8gL	!LO:SIC:s=(8ggL	!LO:SIC:s=(8bb-L	!LO:SIC:s=(8bb-L	!LO:SIC:s=(8ggL
!	!	!	!	!LO:SIC:s=(8gL	!	!LO:SIC:s=(8b-L	!	!	!	!	!	!	!	!	!	!	!	!	!LO:LB:g=original	!	!
4B-\	6 4	4d/	.	8g/L	.	8b-/L	.	.	.	.	.	(8g\L	-cel-	8b-\L	-cel-	8e-\L	8f\L	8gg\L	8bb-\L	8bb-\L	8ff\L
!	!	!	!	!	!	!	!	!	!	!	!	!	!	!	!	!	!	!	!LO:SIC:s=8aa-	!	!
.	.	.	.	8f/	.	8a-/	.	.	.	.	.	8f\	.	8a-\	.	8f\	8a-\	8ff\	(8aa-\	8aa-\	8aa-\
!	!	!	!	!	!	!	!	!	!	!	!	!	!	!	!	!	!	!LO:SIC:s=8ee-	!	!	!
4BB-/	7 5	4B-/	.	8e-/	.	8g/	.	.	.	.	.	8e-\	.	8g\	.	8e-\	8g\	(8ee-\	8gg\	8gg\	8gg\
!	!	!	!	!LO:SIC:s=8dJ)	!	!LO:SIC:s=8fJ)	!	!	!	!	!	!	!	!	!	!LO:SIC:s=8B-J)	!LO:SIC:s=8fJ)	!	!	!LO:SIC:s=8ffJ)	!LO:SIC:s=8ffJ)
.	.	.	.	8d/J	.	8f/J	.	.	.	.	.	8d\J)	.	8f\J	.	8B-\J	8f\J	8dd\J)	8ff\J)	8ff\J	8ff\J
=33	=33	=33	=33	=33	=33	=33	=33	=33	=33	=33	=33	=33	=33	=33	=33	=33	=33	=33	=33	=33	=33
!	!	!	!	!	!	!	!	!	!	!	!	!	!LO:MO:mod=-sis	!LO:TX:a:i:t=Tut:mod=	!	!	!	!	!	!	!
4E-\	5 3	4E-/	.	4e-/	.	4g/	.	4r	.	4r	.	4e-\	-si	4g\	-sis	4e-\	4g\	4ee-\	4gg\	4gg\	4gg\
!!LO:TX:a:t= :mod=Tutti
!	!	!	!LO:DY:t= :mod=%s	!	!LO:DY:t= :mod=%s	!	!	!	!	!	!	!	!	!	!	!	!	!	!	!	!
!	!	!	!LO:MO:mod=!LO&colon;DY&colon;ed=brack	!	!LO:MO:mod=!LO&colon;DY&colon;ed=brack	!	!	!	!	!	!	!	!	!	!	!	!	!	!	!	!
!	!	!	!null	!	!null	!	!LO:DY:t= :mod=%s	!	!LO:MO:mod=Ho-	!	!LO:MO:mod=Ho-	!	!LO:MO:mod=Ho-	!	!LO:MO:mod=Ho-	!	!	!	!	!	!
4E-\	_ _	4e-\	f	4g/	f	4b-/	f	4E-\	O-	4e-\	O-	4g\	O-	4b-\	O-	4G/	4e-\	4b-\	4ee-\	4ee-\	4ee-\
4G\	.	4g\	.	4g/	.	4b-/	.	4G\	-san-	4e-\	-san-	4g\	-san-	4b-\	-san-	4G/	4e-\	4b-\	4ee-\	4ee-\	4ee-\
4E-\	x	4e-\	.	4g/	.	4b-/	.	4E-\	-na	4e-\	-na	4g\	-na	4b-\	-na	4G/	4e-\	4b-\	4ee-\	4ee-\	4ee-\
!	!	!	!	!	!	!	!	!	!	!	!	!LO:LB:g=original	!	!	!	!	!	!	!	!	!
=34	=34	=34	=34	=34	=34	=34	=34	=34	=34	=34	=34	=34	=34	=34	=34	=34	=34	=34	=34	=34	=34
!	!	!	!	!	!	!	!LO:DY:a:t=for:mod= 	!	!	!	!	!	!	!	!	!	!	!	!	!	!
4A-\	5 3	4A-/	.	4r	.	4r	f	2A-\	in	2e-\	in	2a-\	in	2cc\	in	2E-/	2e-\	2e-/	2cc\	2cc\	2ee-\
4r	.	4r	.	4e-/	.	4cc\	.	.	.	.	.	.	.	.	.	.	.	.	.	.	.
!	!	!LO:LB:g=original	!	!	!	!	!	!	!	!	!	!	!	!	!	!	!	!	!	!	!
4A-\	6 2	4A-/	.	4r	.	4r	.	2A-\	ex-	2f\	ex-	2b-\	ex-	2dd\	ex-	2B-/	2f\	2f/	2dd\	2dd\	2ff\
4r	.	4r	.	4f/	.	4dd\	.	.	.	.	.	.	.	.	.	.	.	.	.	.	.
=35	=35	=35	=35	=35	=35	=35	=35	=35	=35	=35	=35	=35	=35	=35	=35	=35	=35	=35	=35	=35	=35
.	.	.	.	.	.	8qqff/	.	.	.	.	.	.	.	.	.	.	.	.	.	.	.
4G\	6 3	4B-/	.	4g/	.	4ee-\	.	(4G\	-cel-	2.e-\	-cel-	2g\	-cel-	2ee-\	-cel-	2e-\	2g\	2b-\	2ee-\	2ee-\	2gg\
4G\	_ _	4B-/	.	4g/	.	4ee-\	.	4E-\	.	.	.	.	.	.	.	.	.	.	.	.	.
!	!	!	!	!LO:SIC:s=(8b-L	!	!	!	!	!	!	!	!	!	!LO:SIC:s=(8ddL	!	!	!	!	!	!	!
4A-\	5 3	4c/	.	8b-/L	.	(8dd\L	.	4A-\	.	.	.	(8b-\L	.	8dd\L	.	4f\	4a-\	4a-\	4cc\	4cc\	4aa-\
.	.	.	.	8a-/	.	8cc\	.	.	.	.	.	8a-\	.	8cc\	.	.	.	.	.	.	.
!	!	!	!	!	!	!LO:SIC:s=8b-	!	!	!	!	!	!	!	!	!	!	!	!	!	!	!
4A-\	6 3	4c/	.	8g/	.	8b-\)	.	4F\)	.	4c\	.	8g\	.	8b-\	.	4f\	4a-\	4ff\	4aa-\	4aa-\	4aa-\
!	!	!	!	!LO:SIC:s=8fJ)	!	!LO:SIC:s=8a-J)	!LO:DY:a:t=for:mod= 	!	!	!	!	!	!	!LO:SIC:s=8a-J)	!	!	!	!	!	!	!
.	.	.	.	8f/J	.	8a-\J	f	.	.	.	.	8f\J)	.	8a-\J	.	.	.	.	.	.	.
!LO:LB:g=original	!	!	!	!	!	!	!	!	!	!	!	!	!	!LO:LB:g=original	!	!	!	!	!	!	!
=36	=36	=36	=36	=36	=36	=36	=36	=36	=36	=36	=36	=36	=36	=36	=36	=36	=36	=36	=36	=36	=36
!	!	!	!	!LO:TX:t=P:problem=mixed beam	!	!LO:TX:t=P:problem=mixed beam	!	!	!	!	!	!	!	!	!	!	!	!	!	!	!
4B-\	6 3	4B-/	.	16e-/LL	.	16g/LL	.	2B-\	.	2B-\	.	2e-\	.	2g/	.	2e-\	2g\	2ee-\	2gg\	2gg\	2gg\
.	.	.	.	16ee-\	.	16gg\	.	.	.	.	.	.	.	.	.	.	.	.	.	.	.
.	.	.	.	16ee-\	.	16gg\	.	.	.	.	.	.	.	.	.	.	.	.	.	.	.
.	.	.	.	16ee-\JJ	.	16gg\JJ	.	.	.	.	.	.	.	.	.	.	.	.	.	.	.
*	*	*	*	*tremolo	*	*tremolo	*	*	*	*	*	*	*	*	*	*	*	*	*	*	*
4B-\	_ _	4B-/	.	16ee-\LL	.	16gg\LL	.	.	.	.	.	.	.	.	.	.	.	.	.	.	.
.	.	.	.	16ee-\	.	16gg\	.	.	.	.	.	.	.	.	.	.	.	.	.	.	.
.	.	.	.	16ee-\	.	16gg\	.	.	.	.	.	.	.	.	.	.	.	.	.	.	.
.	.	.	.	16ee-\JJ	.	16gg\JJ	.	.	.	.	.	.	.	.	.	.	.	.	.	.	.
!	!	!	!	!	!	!	!	!	!	!LO:SIC:s=2A-	!	!	!	!	!	!	!	!	!	!	!
4BB-/	7 5	4B-/	.	16dd\LL	.	16ff\LL	.	2BB-/	.	2A-X\	.	2d\	.	2f/	.	2B-/	2f\	2dd\	2ff\	2ff\	2ff\
.	.	.	.	16dd\	.	16ff\	.	.	.	.	.	.	.	.	.	.	.	.	.	.	.
.	.	.	.	16dd\	.	16ff\	.	.	.	.	.	.	.	.	.	.	.	.	.	.	.
.	.	.	.	16dd\	.	16ff\	.	.	.	.	.	.	.	.	.	.	.	.	.	.	.
4BB-/	_ _	4B-/	.	16dd\	.	16ff\	.	.	.	.	.	.	.	.	.	.	.	.	.	.	.
.	.	.	.	16dd\	.	16ff\	.	.	.	.	.	.	.	.	.	.	.	.	.	.	.
.	.	.	.	16dd\	.	16ff\	.	.	.	.	.	.	.	.	.	.	.	.	.	.	.
.	.	.	.	16dd\JJ	.	16ff\JJ	.	.	.	.	.	.	.	.	.	.	.	.	.	.	.
*	*	*	*	*Xtremolo	*	*Xtremolo	*	*	*	*	*	*	*	*	*	*	*	*	*	*	*
=37	=37	=37	=37	=37	=37	=37	=37	=37	=37	=37	=37	=37	=37	=37	=37	=37	=37	=37	=37	=37	=37
4E-\	5 3	4e-/ 4B-/	.	4b-/ 4g/	.	4ee-\ 4e-\	.	4E-\	-sis	4G/	-sis	4B-/	-sis	4e-/	-sis	4G/	4e-\	4b-\	4ee-\	4ee-\	4ee-\
4r	.	4r	.	4r	.	4r	.	4r	.	4r	.	4r	.	4r	.	4r	4r	4r	4r	4r	4r
4BB-/	7 5	4A-/	.	4b-/ 4d/	.	4ff\ 4b-\ 4d\	.	4B-\	in	4f\	in	4a-\	in	4dd\	in	4B-/	4f\	4dd\	4ff\	4ff\	4ff\
4r	.	4r	.	4r	.	4r	.	4B-\	ex-	4f\	ex-	4a-\	ex-	4dd\	ex-	4r	4r	4r	4r	4r	4r
!	!	!	!	!	!	!	!	!	!	!	!	!	!	!	!	!LO:LB:g=original	!	!	!	!	!
=38	=38	=38	=38	=38	=38	=38	=38	=38	=38	=38	=38	=38	=38	=38	=38	=38	=38	=38	=38	=38	=38
!	!	!LO:SIC:s=4B-	!	!	!	!	!	!	!	!	!	!	!	!	!	!	!	!	!	!	!
4E-\	5 3	4A-/	.	4b-/ 4g/	.	4gg\ 4b-\ 4e-\	.	4E-\	-cel-	4B-\	-cel-	4g\	-cel-	4ee-\	-cel-	4e-\	4g\	4ee-\	4gg\	4gg\	4gg\
!	!	!LO:SIC:s=4B-	!	!	!	!	!	!	!LO:MO:mod=-sis.	!	!LO:MO:mod=-sis.	!	!LO:MO:mod=-sis.	!	!LO:MO:mod=-sis.	!	!	!	!	!	!
4E-\	_ _	4A-/	.	4b-/ 4g/	.	4gg\ 4b-\ 4e-\	.	4E-\	-sis	4B-\	-sis	4g\	-sis	4ee-\	-sis	4G/	4e-\	4ee-\	4gg\	4gg\	4ee-\
4E-\	.	4B-/	.	4b-/ 4g/	.	4gg\ 4b-\ 4e-\	.	2r	.	2r	.	2r	.	2r	.	4G/	4e-\	4ee-\	4gg\	4gg\	4ee-\
4r	x	4r	.	4r	.	4r	.	.	.	.	.	.	.	.	.	4r	4r	4r	4r	4r	4r
==	==	==	==	==	==	==	==	==	==	==	==	==	==	==	==	==	==	==	==	==	==
*-	*-	*-	*-	*-	*-	*-	*-	*-	*-	*-	*-	*-	*-	*-	*-	*-	*-	*-	*-	*-	*-
!!!system-decoration: [(g1)][(g2)][(g3)][(g4)]<s14>
!!!RDF**kern: | = vertical stroke
!!!ENC: Tomasz Grochalski
!!!END: 2020-10-17
!!!ENC: Leszek Kubiak
!!!END: 2022-01-21
!!!ENC-modern: Andrzej Kubiczek
!!!END-modern: 2022-07-11
!!!YEC: Copyright 2022 Narodowy Instytut Fryderyka Chopina (https://polishscores.org)
!!!YEM: Licence CC BY 4.0 (https://creativecommons.org/licenses/by/4.0)
